!!!!SEGMENT: pl-cz--iii-679--002_volckmer-augustin--missa-in-d-kyrie.krn
!!!cenid: 17xx:1174
!!!COM: Volckmer, Augustin
!!!COM-rismid: pe30020656
!!!CDT: 1755-~1820
!!!CNT:
!!!OPR: Missa in D
!!!OTL: Kyrie
!!!OMV: 002
!!!PDT:
!!!AGN: Sacred; Mass
!!!SMS-siglum: PL-CZ
!!!SMS-shelfmark: III-679
!!!SMS-shelfwork: 001-002 M
!!!SMS-variant:
!!!SMS-altvar:
!!!NIFC-rismid: 300001394
!!!URL-scan: http://repozytorium.nifc.pl/skany/pl-cz-nut--iii-679
!!!ONB-nifc: UWAGA: części Mszy: Sinfonia, Kyrie, Gloria, Domine Deus, Cum Sancto Spiritu,
!!!key: G
**kern	**fba	**dynam	**kern	**dynam	**kern	**dynam	**kern	**dynam	**kern	**dynam	**kern	**text	**dynam	**kern	**text	**dynam	**kern	**text	**dynam	**kern	**text	**dynam	**kern	**kern	**kern	**kern	**dynam	**kern	**dynam	**kern	**dynam	**kern	**dynam	**kern	**dynam	**kern	**dynam	**kern	**dynam
*	*	*	*group4	*	*group4	*	*group4	*	*group4	*	*group3	*	*	*group3	*	*	*group3	*	*	*group3	*	*	*	*group2	*group2	*group2	*	*group2	*	*group1	*	*group1	*	*group1	*	*group1	*	*group1	*
*part19	*part19	*part19	*part18	*part18	*part17	*part17	*part16	*part16	*part15	*part15	*part14	*part14	*part14	*part13	*part13	*part13	*part12	*part12	*part12	*part11	*part11	*part11	*part10	*part9	*part8	*part7	*part7	*part6	*part6	*part5	*part5	*part4	*part4	*part3	*part3	*part2	*part2	*part1	*part1
*staff19	*	*	*staff18	*	*staff17	*	*staff16	*	*staff15	*	*staff14	*staff14	*	*staff13	*staff13	*	*staff12	*staff12	*	*staff11	*staff11	*	*staff10	*staff9	*staff8	*staff7	*	*staff6	*	*staff5	*	*staff4	*	*staff3	*	*staff2	*	*staff1	*
*I"Organo. u Violone	*	*	*I"Viola. Secundo.	*	*I"Viola Primo.	*	*I"Violino Secundo.	*	*I"Violino. Primo.	*	*I"Baſso.	*	*	*I"Tenore.	*	*	*I"Alto.	*	*	*I"Canto.	*	*	*I"Timpano	*I"Clarino Secundo	*I"Clarino Primo	*I"Corno Secundo.	*	*I"Corno Primo:	*	*I"Fagotho Secundo.	*	*I"Fagotho Primo.	*	*I"Hautbois Secundo.	*	*I"Hautbois Primo.	*	*I"Flauto.	*
*I'org & vlne	*	*	*I'vla 2	*	*I'vla 1	*	*I'vl 2	*	*I'vl 1	*	*I'B	*	*	*I'T	*	*	*I'A	*	*	*I'S	*	*	*I'timp	*I'clno 2	*I'clno 1	*I'cor 2	*	*I'cor 1	*	*I'fag 2	*	*I'fag 1	*	*I'ob 2	*	*I'ob 1	*	*I'fl	*
*Iorgan	*	*	*Iviola	*	*Iviola	*	*Ivioln	*	*Ivioln	*	*Ibass	*	*	*Itenor	*	*	*Ialto	*	*	*Isoprn	*	*	*Itimpa	*Iclrno	*Iclrno	*Icor	*	*Icor	*	*Ifagot	*	*Ifagot	*	*Ioboe	*	*Ioboe	*	*Iflt	*
*ICklav	*	*	*ICstr	*	*ICstr	*	*ICstr	*	*ICstr	*	*ICvox	*	*	*ICvox	*	*	*ICvox	*	*	*ICvox	*	*	*ICidio	*ICbras	*ICbras	*ICbras	*	*ICbras	*	*ICww	*	*ICww	*	*ICww	*	*ICww	*	*ICww	*
*clefF4	*	*	*clefC3	*	*clefC3	*	*clefG2	*	*clefG2	*	*clefF4	*	*	*clefC4	*	*	*clefC3	*	*	*clefC1	*	*	*	*	*	*clefG2	*	*clefG2	*	*clefF4	*	*clefF4	*	*clefG2	*	*clefG2	*	*clefG2	*
*	*	*	*	*	*	*	*	*	*	*	*	*	*	*	*	*	*	*	*	*	*	*	*	*	*	*ITrd3c5	*	*ITrd3c5	*	*	*	*	*	*	*	*	*	*	*
*k[f#]	*	*	*k[f#]	*	*k[f#]	*	*k[f#]	*	*k[f#]	*	*k[f#]	*	*	*k[f#]	*	*	*k[f#]	*	*	*k[f#]	*	*	*	*	*	*k[f#]	*	*k[f#]	*	*k[f#]	*	*k[f#]	*	*k[f#]	*	*k[f#]	*	*k[f#]	*
*G:	*	*	*G:	*	*G:	*	*G:	*	*G:	*	*G:	*	*	*G:	*	*	*G:	*	*	*G:	*	*	*	*	*	*G:	*	*G:	*	*G:	*	*G:	*	*G:	*	*G:	*	*G:	*
*M2/4	*	*	*M2/4	*	*M2/4	*	*M2/4	*	*M2/4	*	*M2/4	*	*	*M2/4	*	*	*M2/4	*	*	*M2/4	*	*	*	*	*	*M2/4	*	*M2/4	*	*M2/4	*	*M2/4	*	*M2/4	*	*M2/4	*	*M2/4	*
*	*	*	*	*	*all\right	*	*all\right	*	*	*	*all\right	*	*	*all\right	*	*	*all\right	*	*	*all\right	*	*	*	*	*	*	*	*	*	*	*	*	*	*all\right	*	*all\right	*	*	*
=1	=1	=1	=1	=1	=1	=1	=1	=1	=1	=1	=1	=1	=1	=1	=1	=1	=1	=1	=1	=1	=1	=1	=1	=1	=1	=1	=1	=1	=1	=1	=1	=1	=1	=1	=1	=1	=1	=1	=1
*	*	*	*	*	*	*	*	*	*	*	*	*	*^	*	*	*	*	*	*	*	*	*	*	*	*	*	*	*	*	*	*	*	*	*	*	*	*	*	*
!LO:TX:t=P:problem:mixed beam	!	!	!	!	!	!	!	!	!	!	!	!	!	!	!	!	!	!	!	!	!	!	!	!	!	!	!LO:TX:a:t=in G	!	!	!	!LO:TX:b:i:t=Dolce	!	!	!	!	!	!	!	!	!
!LO:TX:a:i:t=Tutti	!	!	!LO:TX:t=P:problem:mixed beam	!	!	!	!	!	!	!	!	!	!	!	!	!	!	!	!	!	!	!	!	!	!	!	!LO:TX:a:t=6	!	!LO:TX:a:t=in G.	!	!LO:TX:a:i:t=Solo	!	!LO:TX:a:i:t=Dolce Solo	!	!	!	!LO:TX:a:t=6	!	!LO:TX:a:t=2	!
!LO:TX:b:Bi:t=Gratioso	!	!LO:DY:t=Piano	!LO:TX:a:i:t=and&colon;	!LO:DY:t=forte	!LO:TX:a:Bi:t=Gratioso&colon;	!	!LO:TX:a:Bi:t=Grazioso.	!LO:DY:t=f.	!LO:TX:a:Bi:t=Grazioso.	!	!LO:TX:a:Bi:t=Grazioso.	!	!LO:DY:a:t=forte	!LO:DY:b:t=for&colon;	!LO:TX:a:Bi:t=Grazioso.	!	!LO:DY:b:t=for&colon;	!	!	!LO:DY:a:t=for&colon;	!LO:TX:a:Bi:t=Grazioso.	!	!	!LO:TX:a:t=Kyrie Tacet	!LO:TX:a:t=Kyrie Tacet	!LO:TX:a:t=Kyrie Tacet	!LO:TX:a:Bi:t=graciozo	!	!LO:TX:a:Bi:t=granzioso	!	!LO:TX:a:Bi:t=Gratioso	!LO:DY:a:t=Piano	!LO:TX:b:Bi:t=Gratioso	!	!LO:TX:a:t=6	!	!LO:TX:b:Bi:t=Grazioso.	!	!LO:TX:a:Bi:t=Grazioso	!
8GG/L	.	p	8G/L	f	8.B/L	f	8.gL 8.G/	f	8.bL 8.d 8.G/	f	8.G\	Ky-	f	f	8.G/	Ky-	f	8.g\	Ky-	f	8.b\	Ky-	.	2ryy	2ryy	2ryy	0r	.	0r	.	8.G\L	p	8.B\L	.	0r	.	0r	.	1r	.
8G\J	.	.	8g\	.	.	.	.	.	.	.	.	.	.	.	.	.	.	.	.	.	.	.	.	.	.	.	.	.	.	.	.	.	.	.	.	.	.	.	.	.
.	.	.	.	.	16c/Jk	.	16a/Jk	.	16cc/Jk	.	16G\	-ri-	.	.	16G/	-ri-	.	16a\	-ri-	.	16cc\	-ri-	.	.	.	.	.	.	.	.	16A\Jk	.	16c\Jk	.	.	.	.	.	.	.
!LO:TX:t=P:problem:mixed beam	!	!	!	!	!	!	!	!	!	!	!	!	!	!	!	!	!	!	!	!	!	!	!	!	!	!	!	!	!	!	!	!	!	!	!	!	!	!	!	!
8GG/L	.	.	8G/	.	8d\L	.	8b\L	.	8dd\L	.	4G\	-e	.	.	4G/	-e	.	4b\	-e	.	4dd\	-e	.	.	.	.	.	.	.	.	8B\L	.	8d\L	.	.	.	.	.	.	.
8G\J	.	.	8g\J	.	8d\J	.	8b\J	.	8dd\J	.	.	.	.	.	.	.	.	.	.	.	.	.	.	.	.	.	.	.	.	.	8B\J	.	8d\J	.	.	.	.	.	.	.
*	*	*	*	*	*	*	*	*	*	*	*	*	*v	*v	*	*	*	*	*	*	*	*	*	*	*	*	*	*	*	*	*	*	*	*	*	*	*	*	*	*
=2	=2	=2	=2	=2	=2	=2	=2	=2	=2	=2	=2	=2	=2	=2	=2	=2	=2	=2	=2	=2	=2	=2	=2	=2	=2	=2	=2	=2	=2	=2	=2	=2	=2	=2	=2	=2	=2	=2	=2
!LO:TX:t=P:problem:mixed beam	!	!	!LO:TX:t=P:problem:mixed beam	!	!	!	!	!	!	!	!	!	!	!	!	!	!	!	!	!	!	!	!	!	!	!	!	!	!	!	!	!	!	!	!	!	!	!	!
8GG/L	.	.	8G/L	.	8e\L	.	8cc\L	.	8ee\L	.	4G\	e-	.	4G/	e-	.	8cc\L	e-	.	8ee\L	e-	.	2ryy	2ryy	2ryy	.	.	.	.	8c\L	.	8e\L	.	.	.	.	.	.	.
!	!	!	!	!	!	!	!LO:TUP:a:problem:klamra łukowa	!	!LO:TUP:a:problem:klamra łukowa	!	!	!	!	!	!	!	!LO:TUP:a:problem:klamra łukowa	!	!	!LO:TUP:a:problem:klamra łukowa	!	!	!	!	!	!	!	!	!	!LO:TUP:a:problem:klamra łukowa	!	!LO:TUP:a:problem:klamra łukowa, kropka zamiast numeru	!	!	!	!	!	!	!
8G\J	.	.	8g\	.	24g\L	.	24ee\L	.	24gg\L	.	.	.	.	.	.	.	24ee\L	.	.	24gg\L	.	.	.	.	.	.	.	.	.	24e\L	.	24g\L	.	.	.	.	.	.	.
.	.	.	.	.	24f#\	.	24dd\	.	24ff#\	.	.	.	.	.	.	.	24dd\	.	.	24ff#\	.	.	.	.	.	.	.	.	.	24d\	.	24f#\	.	.	.	.	.	.	.
.	.	.	.	.	24e\JJ	.	24cc\JJ	.	24ee\JJ	.	.	.	.	.	.	.	24cc\JJ	.	.	24ee\JJ	.	.	.	.	.	.	.	.	.	24c\JJ	.	24e\JJ	.	.	.	.	.	.	.
!LO:TX:t=P:problem:mixed beam	!	!	!	!	!	!	!	!	!	!	!	!	!	!	!	!	!	!	!	!	!	!	!	!	!	!	!	!	!	!	!	!	!	!	!	!	!	!	!
8GG/L	.	.	8G/	.	8e\L	.	8cc\L	.	8ee\L	.	8c\	-lei-	.	8G/	-lei-	.	8cc\	-lei-	.	8ee\	-lei-	.	.	.	.	.	.	.	.	8c\L	.	8e\L	.	.	.	.	.	.	.
8G\J	.	.	8g\J	.	8d\J	.	8b\J	.	8dd\J	.	8G\	-son	.	8G/	-son	.	8b\	-son	.	8dd\	-son	.	.	.	.	.	.	.	.	8B\J	.	8d\J	.	.	.	.	.	.	.
=3	=3	=3	=3	=3	=3	=3	=3	=3	=3	=3	=3	=3	=3	=3	=3	=3	=3	=3	=3	=3	=3	=3	=3	=3	=3	=3	=3	=3	=3	=3	=3	=3	=3	=3	=3	=3	=3	=3	=3
8A\L	.	.	(16f#\LL	.	(16c/LL	.	8aL 8d/	.	(16cc\LL	.	8A\	Ky-	.	8A/	Ky-	.	(16a\LL	Ky-	.	(16cc\LL	Ky-	.	2ryy	2ryy	2ryy	.	.	.	.	(16A\LL	.	(16c\LL	.	.	.	.	.	(16ccc\LL	p
.	.	.	16a\)	.	16e/)	.	.	.	16ee\)	.	.	.	.	.	.	.	16cc\JJ)	.	.	16ee\JJ)	.	.	.	.	.	.	.	.	.	16c\	.	16e\)	.	.	.	.	.	16eee\)	.
8F#\J	.	.	(16d\	.	(16A/	.	8aJ 8d/	.	(16a\	.	8F#\	-ri-	.	8F#/	-ri-	.	(16f#\LL	-ri-	.	(16a\LL	-ri-	.	.	.	.	.	.	.	.	16F#\	.	(16A\	.	.	.	.	.	(16aa\	.
.	.	.	16f#\JJ)	.	16c/JJ)	.	.	.	16cc\JJ)	.	.	.	.	.	.	.	16a\JJ)	.	.	16cc\JJ)	.	.	.	.	.	.	.	.	.	16A\JJ)	.	16c\JJ)	.	.	.	.	.	16ccc\JJ)	.
!	!	!	!	!	!	!	!	!	!	!	!	!	!	!	!	!	!	!	!	!	!	!	!	!	!	!	!	!	!	!LO:TX:t=P:problem:mixed beam	!	!	!	!	!	!	!	!	!
8G\L	.	.	8g\L|	.	16d\LL	.	8g/L	.	8b\L	.	8G\	-e	.	8G/	-e	.	8g\	-e	.	8b\	-e	.	.	.	.	.	.	.	.	8G\L	.	8B\L	.	.	.	.	.	8bb\L	.
.	.	.	.	.	16B\JJ	.	.	.	.	.	.	.	.	.	.	.	.	.	.	.	.	.	.	.	.	.	.	.	.	.	.	.	.	.	.	.	.	.	.
16E\L	.	.	8e\J|	.	(32d\LLL	.	32fn/LL	.	(32dd\LL	.	16E\LL	e-	.	8e\	e-	.	(32fn\LLL	e-	.	(32dd\LLL	e-	.	.	.	.	.	.	.	.	8C/J	.	8A\J	.	.	.	.	.	(32ddd\LL	.
.	.	.	.	.	32c\	.	32e/	.	32cc\	.	.	.	.	.	.	.	32e\	.	.	32cc\	.	.	.	.	.	.	.	.	.	.	.	.	.	.	.	.	.	32ccc\	.
16C\JJ	.	.	.	.	32B\	.	32d/	.	32b\	.	16C\JJ	.	.	.	.	.	32d\	.	.	32b\	.	.	.	.	.	.	.	.	.	.	.	.	.	.	.	.	.	32bb\	.
.	.	.	.	.	32A\JJJ)	.	32c/JJJ	.	32a\JJJ)	.	.	.	.	.	.	.	32c\JJJ)	.	.	32a\JJJ)	.	.	.	.	.	.	.	.	.	.	.	.	.	.	.	.	.	32aa\JJJ)	.
=4	=4	=4	=4	=4	=4	=4	=4	=4	=4	=4	=4	=4	=4	=4	=4	=4	=4	=4	=4	=4	=4	=4	=4	=4	=4	=4	=4	=4	=4	=4	=4	=4	=4	=4	=4	=4	=4	=4	=4
!LO:TX:t=P:problem:mixed beam	!	!	!	!	!	!	!	!	!	!	!	!	!	!	!	!	!	!	!	!	!	!	!	!	!	!	!	!	!	!	!	!	!	!	!	!	!	!	!
8D\L	.	.	8d\L	.	16A/LL	.	(16c/LL	.	(16a/LL	.	4D/	-lei-	.	4d\	-lei-	.	16c/KL	-lei-	.	(16a\LL	-le-	.	2ryy	2ryy	2ryy	.	.	.	.	4D\	.	8G\L	.	.	.	.	.	(8gg\L	.
.	.	.	.	.	16G/	.	16B/)	.	16g/)	.	.	.	.	.	.	.	8B/	.	.	16g\)	.	.	.	.	.	.	.	.	.	.	.	.	.	.	.	.	.	.	.
8DD/J	.	.	8d\J	.	16G/	.	(16B/	.	(16g/	.	.	.	.	.	.	.	.	.	.	(16g\	-i-	.	.	.	.	.	.	.	.	.	.	8F#\J	.	.	.	.	.	8ff#\)	.
.	.	.	.	.	16F#/JJ	.	16A/JJ)	.	16f#/JJ)	.	.	.	.	.	.	.	16A/Jk	.	.	16f#\JJ)	.	.	.	.	.	.	.	.	.	.	.	.	.	.	.	.	.	.	.
!	!	!	!	!	!LO:TX:t=P:problem:mixed beam	!	!	!	!	!	!	!	!	!	!	!	!	!	!	!	!	!	!	!	!	!	!	!	!	!	!	!	!	!	!	!	!	!	!
4GG/	.	.	4d\	.	8G/L	.	8A/L	.	8f#/L	.	4G\	-son	.	4d\	-son	.	8A/L	.	.	8f#/L	.	.	.	.	.	.	.	.	.	8F#\L	.	8A\L	.	.	.	.	.	(8ff#\	.
.	.	.	.	.	8g\J	.	8B/J	.	8g/J	.	.	.	.	.	.	.	8B/J	-son	.	8g/J	-son	.	.	.	.	.	.	.	.	8G\J	.	8B\J	.	.	.	.	.	8gg\J)	.
=5	=5	=5	=5	=5	=5	=5	=5	=5	=5	=5	=5	=5	=5	=5	=5	=5	=5	=5	=5	=5	=5	=5	=5	=5	=5	=5	=5	=5	=5	=5	=5	=5	=5	=5	=5	=5	=5	=5	=5
!LO:TX:a:t=2.	!	!	!LO:TX:a:t=2	!	!LO:TX:a:t=2	!	!LO:TX:a:i:t=Dolce	!LO:DY:t=p.:rj	!LO:TX:a:i:t=Dolce	!	!LO:TX:a:t=2.	!	!	!LO:TX:a:t=2.	!	!	!LO:TX:a:t=2.	!	!	!LO:TX:a:t=2.	!	!	!	!	!	!	!	!	!	!LO:TX:a:t=2.	!	!LO:TX:a:t=2.	!	!	!	!	!	!LO:TX:a:t=2	!
1r	.	.	1r	.	1r	.	(16fn/LL	p	8b\L	.	1r	.	.	1r	.	.	1r	.	.	1r	.	.	2ryy	2ryy	2ryy	1r	.	1r	.	1r	.	1r	.	1r	.	1r	.	1r	.
.	.	.	.	.	.	.	16G/)	.	.	.	.	.	.	.	.	.	.	.	.	.	.	.	.	.	.	.	.	.	.	.	.	.	.	.	.	.	.	.	.
.	.	.	.	.	.	.	(16d/	.	8b\	.	.	.	.	.	.	.	.	.	.	.	.	.	.	.	.	.	.	.	.	.	.	.	.	.	.	.	.	.	.
.	.	.	.	.	.	.	16G/JJ)	.	.	.	.	.	.	.	.	.	.	.	.	.	.	.	.	.	.	.	.	.	.	.	.	.	.	.	.	.	.	.	.
.	.	.	.	.	.	.	16e/LL	.	8cc\	.	.	.	.	.	.	.	.	.	.	.	.	.	.	.	.	.	.	.	.	.	.	.	.	.	.	.	.	.	.
.	.	.	.	.	.	.	16G/	.	.	.	.	.	.	.	.	.	.	.	.	.	.	.	.	.	.	.	.	.	.	.	.	.	.	.	.	.	.	.	.
.	.	.	.	.	.	.	16c/	.	8ee\J	.	.	.	.	.	.	.	.	.	.	.	.	.	.	.	.	.	.	.	.	.	.	.	.	.	.	.	.	.	.
.	.	.	.	.	.	.	16G/JJ	.	.	.	.	.	.	.	.	.	.	.	.	.	.	.	.	.	.	.	.	.	.	.	.	.	.	.	.	.	.	.	.
=6	=6	=6	=6	=6	=6	=6	=6	=6	=6	=6	=6	=6	=6	=6	=6	=6	=6	=6	=6	=6	=6	=6	=6	=6	=6	=6	=6	=6	=6	=6	=6	=6	=6	=6	=6	=6	=6	=6	=6
.	.	.	.	.	.	.	16c/LL	.	(16ee\LL	.	.	.	.	.	.	.	.	.	.	.	.	.	2ryy	2ryy	2ryy	.	.	.	.	.	.	.	.	.	.	.	.	.	.
.	.	.	.	.	.	.	16B/	.	16dd\	.	.	.	.	.	.	.	.	.	.	.	.	.	.	.	.	.	.	.	.	.	.	.	.	.	.	.	.	.	.
.	.	.	.	.	.	.	16e/	.	16cc\	.	.	.	.	.	.	.	.	.	.	.	.	.	.	.	.	.	.	.	.	.	.	.	.	.	.	.	.	.	.
.	.	.	.	.	.	.	16d/JJ	.	16b\JJ)	.	.	.	.	.	.	.	.	.	.	.	.	.	.	.	.	.	.	.	.	.	.	.	.	.	.	.	.	.	.
.	.	.	.	.	.	.	16d/LL	.	(16b/LL	.	.	.	.	.	.	.	.	.	.	.	.	.	.	.	.	.	.	.	.	.	.	.	.	.	.	.	.	.	.
.	.	.	.	.	.	.	16c/	.	16a/	.	.	.	.	.	.	.	.	.	.	.	.	.	.	.	.	.	.	.	.	.	.	.	.	.	.	.	.	.	.
.	.	.	.	.	.	.	16B/	.	16g/	.	.	.	.	.	.	.	.	.	.	.	.	.	.	.	.	.	.	.	.	.	.	.	.	.	.	.	.	.	.
.	.	.	.	.	.	.	16A/JJ	.	16f#/JJ)	.	.	.	.	.	.	.	.	.	.	.	.	.	.	.	.	.	.	.	.	.	.	.	.	.	.	.	.	.	.
!	!	!	!	!	!	!	!LO:LB:g=original	!	!	!	!	!	!	!	!	!	!LO:LB:g=original	!	!	!LO:LB:g=original	!	!	!	!	!	!	!	!	!	!	!	!	!	!	!	!	!	!	!
=7	=7	=7	=7	=7	=7	=7	=7	=7	=7	=7	=7	=7	=7	=7	=7	=7	=7	=7	=7	=7	=7	=7	=7	=7	=7	=7	=7	=7	=7	=7	=7	=7	=7	=7	=7	=7	=7	=7	=7
!LO:TX:t=P:problem:mixed beam	!	!	!LO:TX:t=P:problem:mixed beam	!	!	!	!	!LO:DY:t=for.	!	!LO:DY:t=for.:rj	!	!	!LO:DY:a:t=for&colon;	!	!	!LO:DY:a:t=for&colon;	!	!	!LO:DY:a:t=for&colon;	!	!	!LO:DY:a:t=for&colon;	!	!	!	!	!	!	!	!LO:TX:t=P:problem:mixed beam	!LO:DY:a:t=forte	!LO:TX:t=P:problem:mixed beam	!LO:DY:a:t=Forte	!	!LO:DY:t=mezzo forte	!LO:N:vis=8	!	!	!
8GG/L	.	.	8G/L	.	8.B/L	.	8.g/L	f	8.bL 8.d 8.G/	f	8.G\	Ky-	f	8.G/	Ky-	f	8.g\	Ky-	f	8.b\	Ky-	f	2ryy	2ryy	2ryy	4G/	f	4g\	f	8GG/L	f	8GG/L	f	8.g/L	mf	8.b\L	.	8.bb\L	f
8G\J	.	.	8g\	.	.	.	.	.	.	.	.	.	.	.	.	.	.	.	.	.	.	.	.	.	.	.	.	.	.	8G\	.	8G\	.	.	.	.	.	.	.
.	.	.	.	.	16c/Jk	.	16a/Jk	.	16cc/Jk	.	16G\	-ri-	.	16G/	-ri-	.	16a\	-ri-	.	16cc\	-ri-	.	.	.	.	.	.	.	.	.	.	.	.	16a/K	.	16cc\Jk	.	16ccc\Jk	.
!LO:TX:t=P:problem:mixed beam	!	!	!	!	!	!	!	!	!	!	!	!	!	!	!	!	!	!	!	!	!	!	!	!	!	!	!	!	!	!	!	!	!	!	!	!	!LO:DY:t=mezo forte	!	!
8GG/L	.	.	8G/	.	8d\L	.	8b/L	.	8dd\L	.	4G\	-e	.	4G/	-e	.	4b\	-e	.	4dd\	-e	.	.	.	.	4G/	.	4g\	.	8GG/	.	8GG/	.	8b/	.	8dd\L	mf	8ddd\L	.
8G\J	.	.	8g\J	.	8d\J	.	8b/J	.	8dd\J	.	.	.	.	.	.	.	.	.	.	.	.	.	.	.	.	.	.	.	.	8G\J	.	8G\J	.	8b/J	.	8dd\J	.	8ddd\J	.
!	!	!	!	!	!	!	!	!	!LO:LB:g=original	!	!LO:LB:g=original	!	!	!	!	!	!	!	!	!	!	!	!	!	!	!	!	!	!	!	!	!LO:LB:g=original	!	!	!	!	!	!	!
=8	=8	=8	=8	=8	=8	=8	=8	=8	=8	=8	=8	=8	=8	=8	=8	=8	=8	=8	=8	=8	=8	=8	=8	=8	=8	=8	=8	=8	=8	=8	=8	=8	=8	=8	=8	=8	=8	=8	=8
!LO:TX:t=P:problem:mixed beam	!	!	!LO:TX:t=P:problem:mixed beam	!	!	!	!	!	!	!	!	!	!	!	!	!	!	!	!	!	!	!	!	!	!	!	!	!	!	!LO:TX:t=P:problem:mixed beam	!	!LO:TX:t=P:problem:mixed beam	!	!	!	!	!	!	!
8GG/L	.	.	8G/L	.	8e\L	.	8cc\L	.	8ee\L	.	4G\	e-	.	4G/	e-	.	8cc\L	e-	.	8ee\L	e-	.	2ryy	2ryy	2ryy	4G/	.	4g\	.	8GG/L	.	8GG/L	.	8cc\L	.	8ee\L	.	8eee\L	.
.	.	.	.	.	.	.	.	.	8qqaa/	.	.	.	.	.	.	.	.	.	.	.	.	.	.	.	.	.	.	.	.	.	.	.	.	.	.	.	.	.	.
!	!	!	!	!	!	!	!LO:TUP:a:problem:klamra łukowa	!	!LO:TUP:a:problem:klamra łukowa	!	!	!	!	!	!	!	!LO:TUP:a:problem:klamra łukowa	!	!	!LO:TUP:a:problem:klamra łukowa	!	!	!	!	!	!	!	!	!	!	!	!	!	!	!	!LO:TUP:a:problem:klamra łukowa	!	!LO:TUP:a:problem:klamra łukowa	!
8G\J	.	.	8g\	.	24g\L	.	24ee\L	.	24gg\L	.	.	.	.	.	.	.	24ee\L	.	.	24gg\L	.	.	.	.	.	.	.	.	.	8G\	.	8G\	.	(16ee\L	.	24gg\L	.	24ggg\L	.
.	.	.	.	.	24f#\	.	24dd\	.	24ff#\	.	.	.	.	.	.	.	24dd\	.	.	24ff#\	.	.	.	.	.	.	.	.	.	.	.	.	.	.	.	24ff#\	.	24fff#\	.
.	.	.	.	.	.	.	.	.	.	.	.	.	.	.	.	.	.	.	.	.	.	.	.	.	.	.	.	.	.	.	.	.	.	16cc\JJ)	.	.	.	.	.
.	.	.	.	.	24e\JJ	.	24cc\JJ	.	24ee\JJ	.	.	.	.	.	.	.	24cc\JJ	.	.	24ee\JJ	.	.	.	.	.	.	.	.	.	.	.	.	.	.	.	24ee\JJ	.	24eee\JJ	.
!LO:TX:t=P:problem:mixed beam	!	!	!	!	!LO:LB:g=original	!	!	!	!	!	!	!	!	!	!	!	!	!	!	!	!	!	!	!	!	!	!	!	!	!	!	!	!	!	!	!	!	!	!
8GG/L	.	.	8G/	.	8e\L	.	8cc\L	.	8ee\L	.	8c\	-lei-	.	8G/	-lei-	.	8cc\	-lei-	.	8ee\	-lei-	.	.	.	.	4G/	.	4g\	.	8GG/	.	8GG/	.	8cc\L	.	8ee\L	.	8eee\L	.
8G\J	.	.	8g\J	.	8d\J	.	8b\J	.	8dd\J	.	8G\	-son	.	8G/	-son	.	8b\	-son	.	8dd\	-son	.	.	.	.	.	.	.	.	8G\J	.	8G\J	.	8b\J	.	8dd\J	.	8ddd\J	.
!	!	!	!	!	!	!	!	!	!	!	!	!	!	!LO:LB:g=original	!	!	!	!	!	!	!	!	!	!	!	!	!	!	!	!	!	!	!	!	!	!	!	!	!
=9	=9	=9	=9	=9	=9	=9	=9	=9	=9	=9	=9	=9	=9	=9	=9	=9	=9	=9	=9	=9	=9	=9	=9	=9	=9	=9	=9	=9	=9	=9	=9	=9	=9	=9	=9	=9	=9	=9	=9
8D\L	.	.	16c/LL	.	8f#\L	.	16a/LL	.	(16cc\LL	.	8D/	Ky-	.	8F#/	Ky-	.	(16a\LL	Ky-	.	(16cc\LL	Ky-	.	2ryy	2ryy	2ryy	8d/L	.	8a\L	.	8D\L	.	8F#\L	.	8a/L	.	8cc\L	.	(16ccc\LL	.
.	.	.	16e/	.	.	.	16cc/	.	16ee\)	.	.	.	.	.	.	.	16cc\JJ)	.	.	16ee\JJ)	.	.	.	.	.	.	.	.	.	.	.	.	.	.	.	.	.	16eee\)	.
8F#\J	.	.	16A/	.	8a\	.	16f#/	.	(16a\	.	8F#/	-ri-	.	8A/	-ri-	.	(16f#\LL	-ri-	.	(16a\LL	-ri-	.	.	.	.	8d/	.	8a\	.	8D\J	.	8F#\J	.	8f#/J	.	8a\J	.	(16aa\	.
.	.	.	16c/JJ	.	.	.	16a/JJ	.	16cc\JJ)	.	.	.	.	.	.	.	16a\JJ)	.	.	16cc\JJ)	.	.	.	.	.	.	.	.	.	.	.	.	.	.	.	.	.	16ccc\JJ)	.
!LO:LB:g=original	!	!	!	!	!	!	!	!	!	!	!	!	!	!	!	!	!	!	!	!	!	!	!	!	!	!	!	!	!	!LO:TX:t=P:problem:mixed beam	!	!	!	!	!	!	!	!	!
8G\L	.	.	16d\LL	.	8g\	.	16g/LL	.	8b\L	.	8G\	-e	.	8G/	-e	.	16g\LL	-e	.	8b|\	-e	.	.	.	.	8g/J	.	8b\J	.	16GG/LL	.	8G\L	.	16g/LL	.	8b\L	.	8bb\L	.
.	.	.	16fn\JJ	.	.	.	16fn/	.	.	.	.	.	.	.	.	.	16fn\JJ	.	.	.	.	.	.	.	.	.	.	.	.	16G\	.	.	.	16fn/JJ	.	.	.	.	.
!	!	!	!	!	!	!	!	!	!	!	!	!	!	!	!	!	!	!	!	!	!	!	!	!	!	!	!	!	!	!	!	!	!	!LO:LB:g=original	!	!	!	!	!
.	.	.	.	.	.	.	16qqf\	.	.	.	.	.	.	.	.	.	16qqf/	.	.	.	.	.	.	.	.	.	.	.	.	.	.	.	.	8qqf/	.	.	.	.	.
16E\L	.	.	16e\LL	.	8e\J	.	16e/	.	(32dd\LL	.	16E\LL	e-	.	8e\	e-	.	16e\LL	e-	.	(32dd\LLL	e-	.	.	.	.	8r	.	8r	.	16E\	.	16E\L	.	16.e/LL	.	(32dd\LL	.	(32ddd\LL	.
.	.	.	.	.	.	.	.	.	32cc\	.	.	.	.	.	.	.	.	.	.	32cc\	.	.	.	.	.	.	.	.	.	.	.	.	.	.	.	32cc\	.	32ccc\	.
16C\JJ	.	.	32c\L	.	.	.	32d/L	.	32b\	.	16C\JJ	.	.	.	.	.	32d\L	.	.	32b\	.	.	.	.	.	.	.	.	.	16C\JJ	.	16C\JJ	.	.	.	32b\	.	32bb\	.
.	.	.	32A\JJJ	.	.	.	32c/JJJ	.	32a\JJJ)	.	.	.	.	.	.	.	32c\JJJ	.	.	32a\JJJ)	.	.	.	.	.	.	.	.	.	.	.	.	.	32a/JJk	.	32a\JJJ)	.	32aa\JJJ)	.
!	!	!	!	!	!	!	!	!	!	!	!	!	!	!	!	!	!	!	!	!	!	!	!	!	!	!	!	!	!	!LO:LB:g=original	!	!	!	!	!	!	!	!	!
=10	=10	=10	=10	=10	=10	=10	=10	=10	=10	=10	=10	=10	=10	=10	=10	=10	=10	=10	=10	=10	=10	=10	=10	=10	=10	=10	=10	=10	=10	=10	=10	=10	=10	=10	=10	=10	=10	=10	=10
.	.	.	.	.	.	.	.	.	.	.	.	.	.	.	.	.	.	.	.	.	.	.	.	.	.	.	.	.	.	.	.	.	.	.	.	16qqcc/	.	.	.
!LO:TX:t=P:problem:mixed beam	!	!	!	!	!	!	!	!	!	!	!	!	!	!	!	!	!	!	!	!	!	!	!	!	!	!	!	!	!	!LO:TX:t=P:problem:mixed beam	!	!LO:TX:t=P:problem:mixed beam	!	!	!	!	!	!	!
8D\L	.	.	16A/LL	.	8d\L	.	(16c/LL	.	(16a/LL	.	4D/	-lei-	.	4d\	-lei-	.	16c/KL	-lei-	.	16a\KL	-lei-	.	2ryy	2ryy	2ryy	8g\	.	8b\	.	8D\L	.	8D\L	.	16a/KL	.	8.b/L	.	16aa\KL	.
.	.	.	16G/	.	.	.	16B/)	.	16g/)	.	.	.	.	.	.	.	8B/	.	.	8g\	.	.	.	.	.	.	.	.	.	.	.	.	.	8g/	.	.	.	8gg\	.
8DD/J	.	.	16G/	.	8d\J	.	(16B/	.	(16g/	.	.	.	.	.	.	.	.	.	.	.	.	.	.	.	.	4d/	.	4a\	.	8DD/J	.	8DD/J	.	.	.	.	.	.	.
.	.	.	16F#/JJ	.	.	.	16A/JJ)	.	16f#/JJ)	.	.	.	.	.	.	.	16A/Jk	.	.	16f#\Jk	.	.	.	.	.	.	.	.	.	.	.	.	.	16f#X/Jk	.	16a/Jk	.	16ff#\Jk	.
!	!	!	!	!	!	!	!LO:N:vis=8	!	!	!	!	!	!	!	!	!	!	!	!	!	!	!	!	!	!	!	!	!	!	!	!	!	!	!	!	!	!	!	!
4GG/	.	.	8F#/L	.	4d\	.	8.A/L	.	8.f#/L	.	4GG/	-son	.	4d\	-son	.	8A/L	.	.	8f#/L	.	.	.	.	.	.	.	.	.	4GG/	.	4GG/	.	8f#/L	.	8a/L	.	8ff#\L	.
.	.	.	8G/J	.	.	.	.	.	.	.	.	.	.	.	.	.	8B/J	-son	.	8g/J	-son	.	.	.	.	8B/	.	8g\	.	.	.	.	.	8g/J	.	8g/J	.	8gg\J	.
.	.	.	.	.	.	.	16B/Jk	.	16g/Jk	.	.	.	.	.	.	.	.	.	.	.	.	.	.	.	.	.	.	.	.	.	.	.	.	.	.	.	.	.	.
!	!	!	!LO:LB:g=original	!	!	!	!	!	!	!	!	!	!	!	!	!	!	!	!	!	!	!	!	!	!	!	!	!	!	!	!	!	!	!	!	!	!	!LO:LB:g=original	!
=11||	=11||	=11||	=11||	=11||	=11||	=11||	=11||	=11||	=11||	=11||	=11||	=11||	=11||	=11||	=11||	=11||	=11||	=11||	=11||	=11||	=11||	=11||	=11||	=11||	=11||	=11||	=11||	=11||	=11||	=11||	=11||	=11||	=11||	=11||	=11||	=11||	=11||	=11||	=11||
!	!	!LO:DY:t=Piano	!	!LO:DY:t=p&colon;	!	!LO:DY:t=p&colon;	!	!LO:DY:t=p&colon;	!	!LO:DY:t=pia.	!	!	!LO:DY:a	!	!	!LO:DY:a	!	!	!LO:DY:a	!	!	!LO:DY:a:t=pia	!	!	!	!	!LO:DY:a:t=pia	!	!LO:DY:t=pia	!	!LO:DY:a:t=Piano	!	!LO:DY:a:t=Piano	!	!	!LO:TX:a:t=10.	!	!LO:TX:a:t=4	!
8D\L	.	p	8.A/L	p	8d\L	p	8.f#/L	p	(8.a/L	p	8.D/	X-	p	8.d\	X-	p	8.f#\	X-	p	8.a\	X-	p	2ryy	2ryy	2ryy	4D/	p	4d/	p	8.A\L	p	8.F#\L	p	0r	.	0r	.	0r	.
8d\	.	.	.	.	8dd\	.	.	.	.	.	.	.	.	.	.	.	.	.	.	.	.	.	.	.	.	.	.	.	.	.	.	.	.	.	.	.	.	.	.
.	.	.	16G/Jk	.	.	.	16e/Jk	.	16g/Jk)	.	16D/	-ste	.	16d\	-ste	.	16e\	-ste	.	16g\	-ste	.	.	.	.	.	.	.	.	16G\Jk	.	16E\K	.	.	.	.	.	.	.
.	.	.	8qqG/	.	.	.	16qqe/	.	8qg/	.	.	.	.	.	.	.	16qqe/	.	.	16qqg/	.	.	.	.	.	.	.	.	.	.	.	16qqE/	.	.	.	.	.	.	.
*	*	*	*	*	*	*	*	*	*	*	*	*ij	*	*	*	*	*	*ij	*	*	*ij	*	*	*	*	*	*	*	*	*	*	*	*	*	*	*	*	*	*
8D\	.	.	8F#/L	.	8d\	.	8d/L	.	8f#/L	.	8D/	X-	.	8d\	X-	.	8d\	X-	.	8f#/	X-	.	.	.	.	4D/	.	4d/	.	8F#\L	.	8D\	.	.	.	.	.	.	.
8d\J	.	.	8F#/J	.	8dd\J	.	8d/J	.	8f#/J	.	8D/	-ste	.	8d\	-ste	.	8d\	-ste	.	8f#/	-ste	.	.	.	.	.	.	.	.	8F#\J	.	8D\J	.	.	.	.	.	.	.
*	*	*	*	*	*	*	*	*	*	*	*	*Xij	*	*	*	*	*	*Xij	*	*	*Xij	*	*	*	*	*	*	*	*	*	*	*	*	*	*	*	*	*	*
=12	=12	=12	=12	=12	=12	=12	=12	=12	=12	=12	=12	=12	=12	=12	=12	=12	=12	=12	=12	=12	=12	=12	=12	=12	=12	=12	=12	=12	=12	=12	=12	=12	=12	=12	=12	=12	=12	=12	=12
8D\L	.	.	8.c/L	.	8d\L	.	8.a/L	.	8.cc\L	.	4D/	e-	.	8.f#\L	e-	.	8.a\L	e-	.	8.cc\L	e-	.	2ryy	2ryy	2ryy	8.d\L	.	8.a\L	.	8.A\L	.	8.c\L	.	.	.	.	.	.	.
8d\	.	.	.	.	8dd\	.	.	.	.	.	.	.	.	.	.	.	.	.	.	.	.	.	.	.	.	.	.	.	.	.	.	.	.	.	.	.	.	.	.
.	.	.	16B/Jk	.	.	.	16g/Jk	.	16b\Jk	.	.	.	.	16g\Jk	.	.	16g\Jk	.	.	16b\Jk	.	.	.	.	.	16g\Jk	.	16b\K	.	16G\Jk	.	16B\Jk	.	.	.	.	.	.	.
8D\	.	.	8B/L	.	8d\	.	8g/L	.	8b\L	.	8D/	-lei-	.	8d\	-lei-	.	8g\	-lei-	.	8b\	-lei-	.	.	.	.	8g\L	.	8b\	.	8G\L	.	8B\L	.	.	.	.	.	.	.
8d\J	.	.	8A/J	.	8dd\J	.	8f#/J	.	8a\J	.	8D/	-son	.	8d\	-son	.	8f#\	-son	.	8a\	-son	.	.	.	.	8d\J	.	8a\J	.	8F#\J	.	8A\J	.	.	.	.	.	.	.
!	!	!	!	!	!	!	!	!	!	!	!	!	!	!	!	!	!LO:LB:g=original	!	!	!	!	!	!	!	!	!	!	!	!	!	!	!	!	!	!	!	!	!	!
=13	=13	=13	=13	=13	=13	=13	=13	=13	=13	=13	=13	=13	=13	=13	=13	=13	=13	=13	=13	=13	=13	=13	=13	=13	=13	=13	=13	=13	=13	=13	=13	=13	=13	=13	=13	=13	=13	=13	=13
4G\	.	.	8B/L	.	4d\	.	8g/L	.	(8b\L	.	4G\	X-	.	4G/	X-	.	(8g\L	Chri-	.	(8b\L	Chri-	.	2ryy	2ryy	2ryy	4G/	.	4g\	.	8G\L	.	8B\L	.	.	.	.	.	.	.
.	.	.	16c/L	.	.	.	16a/L	.	16cc\L	.	.	.	.	.	.	.	16a\L	.	.	16cc\L	.	.	.	.	.	.	.	.	.	16A\L	.	(16c\L	.	.	.	.	.	.	.
.	.	.	16d/JJ	.	.	.	16b/JJ	.	16dd\JJ	.	.	.	.	.	.	.	16b\JJ	.	.	16dd\JJ	.	.	.	.	.	.	.	.	.	16B\JJ	.	16d\JJ)	.	.	.	.	.	.	.
8r	.	.	(16e\LL	.	8r	.	(16cc\LL	.	16ee\LL	.	8r	.	.	8r	.	.	16cc\LL	.	.	16ee\LL	.	.	.	.	.	8r	.	8r	.	(16c\LL	.	(16e\LL	.	.	.	.	.	.	.
.	.	.	16d\	.	.	.	16b\	.	16dd\	.	.	.	.	.	.	.	16b\JJ)	.	.	16dd\JJ)	.	.	.	.	.	.	.	.	.	16B\	.	16d\	.	.	.	.	.	.	.
8G\	3	.	16c\	.	8b\	.	16a\	.	16cc\	.	(8G\	-ste	.	8G/	-ste	.	(16a\LL	-ste	.	(16cc\LL	-ste	.	.	.	.	8G/	.	8g\	.	16A\	.	16c\	.	.	.	.	.	.	.
.	.	.	16B\JJ)	.	.	.	16g\JJ)	.	16b\JJ)	.	.	.	.	.	.	.	16g\JJ)	.	.	16b\JJ)	.	.	.	.	.	.	.	.	.	16G\JJ)	.	16B\JJ)	.	.	.	.	.	.	.
=14	=14	=14	=14	=14	=14	=14	=14	=14	=14	=14	=14	=14	=14	=14	=14	=14	=14	=14	=14	=14	=14	=14	=14	=14	=14	=14	=14	=14	=14	=14	=14	=14	=14	=14	=14	=14	=14	=14	=14
*	*	*	*	*	*	*	*	*	*	*	*	*	*	*	*ij	*	*	*	*	*	*ij	*	*	*	*	*	*	*	*	*	*	*	*	*	*	*	*	*	*
!LO:TX:t=P:problem:mixed beam	!	!	!	!	!LO:TX:t=P:problem:mixed beam	!	!	!	!	!	!	!	!	!	!	!	!	!	!	!	!	!	!	!	!	!LO:TX:t=P:problem:mixed beam	!	!	!	!	!	!	!	!	!	!	!	!	!
8F#\L	5	.	16c/LL	.	8a\L	.	16a/LL	.	(16cc\LL	.	8F#\)	.	.	8F#/	X-	.	16a\LL	X-	.	(16cc\LL	Chri-	.	2ryy	2ryy	2ryy	8d/L	.	8a\L	.	8F#\L	.	8A\L	.	.	.	.	.	.	.
.	.	.	16A/	.	.	.	16f#/	.	16a\)	.	.	.	.	.	.	.	16f#\JJ	.	.	16a\JJ)	.	.	.	.	.	.	.	.	.	.	.	.	.	.	.	.	.	.	.
16G\L	.	.	16B/	.	16g\L	.	16g/	.	(16b\	.	8G\	e-	.	16G/	-ste	.	16g\	-ste	.	16b\	-ste	.	.	.	.	16B/L	.	16g\L	.	8G\	.	8B\J	.	.	.	.	.	.	.
*	*	*	*	*	*	*	*	*	*	*	*	*	*	*	*Xij	*	*	*	*	*	*Xij	*	*	*	*	*	*	*	*	*	*	*	*	*	*	*	*	*	*
!	!	!	!	!	!	!	!	!	!	!	!	!	!	!	!	!	!	!	!	!LO:LB:g=original	!	!	!	!	!	!	!	!	!	!	!	!	!	!	!	!	!	!	!
16GG/JJ	.	.	16d/JJ	.	16G/JJ	.	16b/JJ	.	16g\JJ)	.	.	.	.	16B/	e-	.	16b\	.	.	16g/	e-	.	.	.	.	16g\JJ	.	16b\JJ	.	.	.	.	.	.	.	.	.	.	.
!LO:TX:t=P:problem:mixed beam	!	!	!	!	!	!	!	!	!	!	!	!	!	!	!	!	!	!	!	!	!	!	!	!	!	!	!	!	!	!	!	!	!	!	!	!	!	!	!
8D\L	4	.	8B/L	.	8d\L	.	8g/L	.	8b\L	.	8D/	-lei-	.	8d\	-lei-	.	8g\	lei-	.	8b\	-lei-	.	.	.	.	8g\L	.	8b\L	.	8G\	.	8B\L	.	.	.	.	.	.	.
8DD/J	3	.	8A/J	.	8d\J	.	8f#/J	.	8a\J	.	8D/	-son	.	8D/	-son	.	8f#\	-son	.	8a\	-son	.	.	.	.	8d\J	.	8a\J	.	8F#\J	.	8A\J	.	.	.	.	.	.	.
=15	=15	=15	=15	=15	=15	=15	=15	=15	=15	=15	=15	=15	=15	=15	=15	=15	=15	=15	=15	=15	=15	=15	=15	=15	=15	=15	=15	=15	=15	=15	=15	=15	=15	=15	=15	=15	=15	=15	=15
*	*	*	*	*	*2\right	*	*	*	*	*	*	*	*	*	*	*	*	*	*	*	*	*	*	*	*	*	*	*	*	*	*	*	*	*	*	*	*	*	*
*	*	*	*	*	*tremolo	*	*	*	*	*	*	*	*	*	*	*	*	*	*	*	*	*	*	*	*	*	*	*	*	*	*	*	*	*	*	*	*	*2\right	*
!LO:TX:b:i:t=Tutti	!	!	!	!	!	!	!	!	!	!	!	!	!	!	!	!	!	!	!	!	!	!	!	!	!	!	!	!	!	!	!	!	!	!	!	!	!	!	!
8D|\L	.	.	8.A/L	.	8d\L	.	8.f#/L	.	8.a/L	.	8.D/	X-	.	8.d\	X-	.	8.f#\	X-	.	8.a\	X-	.	2ryy	2ryy	2ryy	4D/	.	4d/	.	8.F#\L	.	8.A\L	.	0r	.	0r	.	2ddd\	p
8d|\	.	.	.	.	8dd\	.	.	.	.	.	.	.	.	.	.	.	.	.	.	.	.	.	.	.	.	.	.	.	.	.	.	.	.	.	.	.	.	.	.
.	.	.	16G/Jk	.	.	.	16e/Jk	.	16g/Jk	.	16D/	-sti	.	16d\	-ste	.	16e\	-ste	.	16g\	-ste	.	.	.	.	.	.	.	.	16E\Jk	.	16G\Jk	.	.	.	.	.	.	.
.	.	.	8qG/	.	.	.	8qqe/	.	8qg/	.	.	.	.	.	.	.	8qqe/	.	.	16qqg/	.	.	.	.	.	.	.	.	.	16qqE/	.	16qqG/	.	.	.	.	.	.	.
*	*	*	*	*	*	*	*	*	*	*	*	*ij	*	*	*	*	*	*ij	*	*	*ij	*	*	*	*	*	*	*	*	*	*	*	*	*	*	*	*	*	*
!	!	!	!	!	!	!	!	!	!	!	!	!	!	!LO:LB:g=original	!	!	!	!	!	!	!	!	!	!	!	!	!	!	!	!	!	!	!	!	!	!	!	!	!
8D|\	.	.	8F#/L	.	8d\	.	8d/L	.	8f#/L	.	8D/	X-	.	8d\	Chri-	.	8d\	X-	.	8f#/	X-	.	.	.	.	4D/	.	4d/	.	8D\L	.	8F#\L	.	.	.	.	.	.	.
8d|\J	.	.	8F#/J	.	8dd\J	.	8d/J	.	8f#/J	.	8D/	-sti	.	8d\	-ste	.	8d\	-ste	.	8f#/	-ste	.	.	.	.	.	.	.	.	8D\J	.	8F#\J	.	.	.	.	.	.	.
*	*	*	*	*	*	*	*	*	*	*	*	*Xij	*	*	*	*	*	*Xij	*	*	*Xij	*	*	*	*	*	*	*	*	*	*	*	*	*	*	*	*	*	*
!	!	!	!	!	!	!	!LO:LB:g=original	!	!	!	!LO:LB:g=original	!	!	!	!	!	!	!	!	!	!	!	!	!	!	!	!	!	!	!	!	!LO:LB:g=original	!	!	!	!	!	!	!
=16	=16	=16	=16	=16	=16	=16	=16	=16	=16	=16	=16	=16	=16	=16	=16	=16	=16	=16	=16	=16	=16	=16	=16	=16	=16	=16	=16	=16	=16	=16	=16	=16	=16	=16	=16	=16	=16	=16	=16
8D\L	.	.	8.c/L	.	8d\L	.	8.a/L	.	8.cc\L	.	4D/	e-	.	8.f#\L	e-	.	8.a\L	e-	.	8.cc\L	e-	.	2ryy	2ryy	2ryy	8.a\L	.	8.cc\L	.	8.A\L	.	8.c\L	.	.	.	.	.	2ddd\	.
8d\	.	.	.	.	8dd\	.	.	.	.	.	.	.	.	.	.	.	.	.	.	.	.	.	.	.	.	.	.	.	.	.	.	.	.	.	.	.	.	.	.
.	.	.	16B/Jk	.	.	.	16g/Jk	.	16b\Jk	.	.	.	.	16g\Jk	.	.	16g\Jk	.	.	16b\Jk	.	.	.	.	.	16g\Jk	.	16b\K	.	16G\Jk	.	16B\Jk	.	.	.	.	.	.	.
8D\	.	.	8B/L	.	8d\	.	8g/L	.	8b\L	.	8D/	-lei-	.	8d\	-lei-	.	8g\	-lei-	.	8b\	-lei-	.	.	.	.	8g\L	.	8b\	.	8G\L	.	8B\L	.	.	.	.	.	.	.
8d\J	.	.	8A/J	.	8dd\J	.	8f#/J	.	8a\J	.	8D/	-son	.	8d\	-son	.	8f#\	-son	.	8a\	-son	.	.	.	.	8d\J	.	8a\J	.	8F#\J	.	8A\J	.	.	.	.	.	.	.
*	*	*	*	*	*Xtremolo	*	*	*	*	*	*	*	*	*	*	*	*	*	*	*	*	*	*	*	*	*	*	*	*	*	*	*	*	*	*	*	*	*	*
!	!	!	!	!	!	!	!	!	!LO:LB:g=original	!	!	!	!	!	!	!	!	!	!	!	!	!	!	!	!	!LO:LB:g=original	!	!	!	!	!	!	!	!	!	!	!	!	!
=17	=17	=17	=17	=17	=17	=17	=17	=17	=17	=17	=17	=17	=17	=17	=17	=17	=17	=17	=17	=17	=17	=17	=17	=17	=17	=17	=17	=17	=17	=17	=17	=17	=17	=17	=17	=17	=17	=17	=17
!LO:TX:t=P:problem:mixed beam	!	!	!LO:TX:t=P:problem:mixed beam	!	!	!	!LO:TX:t=P:problem:mixed beam	!	!	!	!	!	!	!	!	!	!	!	!	!	!	!	!	!	!	!	!	!	!	!	!	!	!	!	!	!	!	!	!
8G\L	3	.	16G/LL	.	8b\L	.	16g|/LL	.	(16b\LL	.	8r	.	.	8r	.	.	8r	.	.	8r	.	.	2ryy	2ryy	2ryy	4G/	.	4g\	.	8G\	.	8B\	.	.	.	.	.	8ddd\	.
.	.	.	16b|\	.	.	.	16gg|\	.	16bb\)	.	.	.	.	.	.	.	.	.	.	.	.	.	.	.	.	.	.	.	.	.	.	.	.	.	.	.	.	.	.
8G\	.	.	16a|\	.	8b\	.	(16ff#|\	.	(16aa'\	.	16r	.	.	16r	.	.	16r	.	.	16r	.	.	.	.	.	.	.	.	.	8r	.	8r	.	.	.	.	.	8r	.
.	.	.	16g|\JJ	.	.	.	16ee|\JJ	.	16gg'\JJ	.	16G\	Chri-	.	16B\	Chri-	.	16e\	Chri-	.	16gg\	Chri-	.	.	.	.	.	.	.	.	.	.	.	.	.	.	.	.	.	.
!	!	!	!	!	!	!	!	!	!	!	!	!	!	!	!	!	!	!	!	!	!	!	!	!	!	!	!	!	!	!LO:TX:t=P:problem:mixed beam	!	!LO:TX:t=P:problem:mixed beam	!	!	!	!	!	!	!
8A\	4	.	16f#|\LL	.	8a\	.	16dd|\LL)	.	16ff#'\LL	.	16A\	-ste	.	16A\	-ste	.	16f#\	-ste	.	16ff#\	-ste	.	.	.	.	8r	.	8r	.	8A\L	.	8A\L	.	.	.	.	.	8r	.
.	.	.	16e|\	.	.	.	(16g|\	.	16ee'\	.	16A\	e-	.	16A\	e-	.	16g\	e-	.	16ee\	e-	.	.	.	.	.	.	.	.	.	.	.	.	.	.	.	.	.	.
8AA/J	3	.	16d|\	.	8a\J	.	16f#|\	.	16dd'\	.	8A\	-lei-	.	8A/	-lei-	.	16f#\LL	-lei-	.	16dd\LL	.	.	.	.	.	16r	.	16r	.	8AA/J	.	8AA/J	.	.	.	.	.	16r	.
.	.	.	16c#X|\JJ	.	.	.	16e|\JJ)	.	16cc#X'\JJ)	.	.	.	.	.	.	.	16e\JJ	.	.	16cc#X\JJ	-lei-	.	.	.	.	16a\	.	16a\	.	.	.	.	.	.	.	.	.	16ccc#X\	.
=18	=18	=18	=18	=18	=18	=18	=18	=18	=18	=18	=18	=18	=18	=18	=18	=18	=18	=18	=18	=18	=18	=18	=18	=18	=18	=18	=18	=18	=18	=18	=18	=18	=18	=18	=18	=18	=18	=18	=18
!	!	!	!LO:SIC:v:s=(4c#\	!	!	!	!	!	!LO:SIC:v:s=(4cc#\	!	!	!	!	!	!	!	!	!	!	!LO:SIC:v:s=(4cc#\	!	!	!	!	!	!	!	!	!	!	!	!	!	!	!	!	!	!LO:SIC:v:s=(4ccc#\	!
8D/L	.	.	(4c\	.	4a\	.	4e/	.	(4cc\	.	4.D/	-son	.	4.A/	-son	.	(4e\	-son	.	(4cc\	-son	.	2ryy	2ryy	2ryy	4a\	.	4a\	.	8D/L	.	8D/L	.	.	.	.	.	(4ccc\	.
8AA/	.	.	.	.	.	.	.	.	.	.	.	.	.	.	.	.	.	.	.	.	.	.	.	.	.	.	.	.	.	8AA/J	.	8AA/J	.	.	.	.	.	.	.
8DD/J	.	.	8d\)	.	8a\	.	8f#/	.	8dd\)	.	.	.	.	.	.	.	8f#\)	.	.	8dd\)	.	.	.	.	.	8d/	.	8a\	.	4DD/	.	4DD/	.	.	.	.	.	8ddd\)	.
!	!	!	!	!	!	!	!	!	!	!	!	!	!	!	!	!	!LO:LB:g=original	!	!	!	!	!	!	!	!	!	!	!	!	!	!	!	!	!	!	!	!	!	!
8r	.	.	8r	.	8r	.	8r	.	8r	f	8r	.	.	8r	.	.	8r	.	.	8r	.	.	.	.	.	8r	.	8r	.	.	.	.	.	.	.	.	.	8r	.
!LO:LB:g=original	!	!	!	!	!	!	!	!	!	!	!	!	!	!	!	!	!	!	!	!	!	!	!	!	!	!	!	!LO:LB:g=original	!	!	!	!	!	!	!	!	!	!	!
=19	=19	=19	=19	=19	=19	=19	=19	=19	=19	=19	=19	=19	=19	=19	=19	=19	=19	=19	=19	=19	=19	=19	=19	=19	=19	=19	=19	=19	=19	=19	=19	=19	=19	=19	=19	=19	=19	=19	=19
!LO:TX:t=P:problem:mixed beam	!	!LO:DY:a:t=Forte	!LO:TX:t=P:problem:mixed beam	!	!LO:TX:t=P:problem:mixed beam	!LO:DY:a	!	!LO:DY:a:t=for.	!	!	!	!	!LO:DY:a:t=for&colon;	!	!	!LO:DY:a:t=for&colon;	!	!	!LO:DY:t=for&colon;	!	!	!LO:DY:a:t=for&colon;	!	!	!	!	!	!	!	!	!LO:DY:a:t=forte	!	!LO:DY:a:t=Forte	!	!	!	!	!	!LO:DY:t=for.
8GG/L	.	f	8G/L	f	8G/L	f	8.gL 8.G/	f	8.bL 8.d 8.G/	.	8.G\	Ky-	f	8.G/	Ky-	f	8.g\	Ky-	f	8.b\	Ky-	f	2ryy	2ryy	2ryy	4G/	f	4g\	f	8.G\L	f	8.B\L	f	1r	.	1r	.	8.bb\L	f
8G\	.	.	8g\	.	8g\	.	.	.	.	.	.	.	.	.	.	.	.	.	.	.	.	.	.	.	.	.	.	.	.	.	.	.	.	.	.	.	.	.	.
.	.	.	.	.	.	.	16a/Jk	.	16cc/Jk	.	16G\	-ri-	.	16G/	-ri-	.	16a\	-ri-	.	16ccn\	-ri-	.	.	.	.	.	.	.	.	16A\K	.	16c\Jk	.	.	.	.	.	16ccc\Jk	.
8GG/	.	.	8G/	.	8G/	.	8b/L	.	8dd\L	.	4G\	-e	.	4G/	-e	.	4b\	-e	.	4dd\	-e	.	.	.	.	4G/	.	4g\	.	8B\	.	8d\L	.	.	.	.	.	8ddd\L	.
8G\J	.	.	8g\J	.	8g\J	.	8b/J	.	8dd\J	.	.	.	.	.	.	.	.	.	.	.	.	.	.	.	.	.	.	.	.	8B\J	.	8d\J	.	.	.	.	.	8ddd\J	.
!	!	!	!	!	!	!	!	!	!	!	!	!	!	!	!	!	!	!	!	!	!	!	!	!	!	!	!	!	!	!LO:LB:g=original	!	!	!	!	!	!	!	!	!
=20	=20	=20	=20	=20	=20	=20	=20	=20	=20	=20	=20	=20	=20	=20	=20	=20	=20	=20	=20	=20	=20	=20	=20	=20	=20	=20	=20	=20	=20	=20	=20	=20	=20	=20	=20	=20	=20	=20	=20
*	*	*	*tremolo	*	*tremolo	*	*	*	*	*	*	*	*	*	*	*	*	*	*	*	*	*	*	*	*	*	*	*	*	*	*	*	*	*	*	*	*	*	*
!LO:TX:t=P:problem:mixed beam	!	!	!LO:TX:t=P:problem:mixed beam	!	!LO:TX:t=P:problem:mixed beam	!	!	!	!	!	!	!	!	!	!	!	!	!	!	!	!	!	!	!	!	!	!	!	!	!	!	!	!	!	!	!	!	!	!
8GG/L	.	.	8G/L	.	8G/L	.	8cc\L	.	8ee\L	.	4G\	e-	.	4G/	e-	.	8cc|\L	e-	.	8ee\L	e-	.	2ryy	2ryy	2ryy	4G/	.	4g\	.	8c\L	.	8e\L	.	.	.	.	.	8eee\L	.
.	.	.	.	.	.	.	.	.	8qqaa/	.	.	.	.	.	.	.	.	.	.	.	.	.	.	.	.	.	.	.	.	.	.	.	.	.	.	.	.	.	.
!	!	!	!	!	!	!	!LO:TUP:a:problem:klamra łukowa	!	!LO:TUP:a:problem:klamra łukowa	!	!	!	!	!	!	!	!LO:TUP:a:problem:klamra łukowa	!	!	!LO:TUP:a:problem:klamra łukowa	!	!	!	!	!	!	!	!	!	!LO:TUP:a:problem:klamra łukowa, kropka zamiast numeru	!	!LO:TUP:a:problem:klamra łukowa	!	!	!	!	!	!LO:TUP:a:problem:klamra łukowa	!
8G\	.	.	8g\	.	8g\	.	24ee\L	.	24gg\L	.	.	.	.	.	.	.	24ee\L	.	.	24gg\L	.	.	.	.	.	.	.	.	.	24e\L	.	24c\L	.	.	.	.	.	24ccc\L	.
.	.	.	.	.	.	.	24dd\	.	24ff#\	.	.	.	.	.	.	.	24dd\	.	.	24ff#\	.	.	.	.	.	.	.	.	.	24d\	.	24d\	.	.	.	.	.	24ddd\	.
.	.	.	.	.	.	.	24cc\JJ	.	24ee\JJ	.	.	.	.	.	.	.	24cc\JJ	.	.	24ee\JJ	.	.	.	.	.	.	.	.	.	24c\JJ	.	24e\JJ	.	.	.	.	.	24eee\JJ	.
8GG/	.	.	8G/	.	8G/	.	8cc\L	.	8ee\L	.	8c\	-lei-	.	8G/	-lei-	.	8cc|\	-lei-	.	8ee\	-lei-	.	.	.	.	4G/	.	4g\	.	8c\L	.	8e\L	.	.	.	.	.	8eee\L	.
8G\J	.	.	8g\J	.	8g/J	.	8b\J	.	8dd\J	.	8G\	-son	.	8G/	-son	.	8b|\	-son	.	8dd\	-son	.	.	.	.	.	.	.	.	8B\J	.	8d\J	.	.	.	.	.	8ddd\J	.
*	*	*	*Xtremolo	*	*Xtremolo	*	*	*	*	*	*	*	*	*	*	*	*	*	*	*	*	*	*	*	*	*	*	*	*	*	*	*	*	*	*	*	*	*	*
!	!	!	!LO:LB:g=original	!	!	!	!	!	!	!	!	!	!	!	!	!	!	!	!	!	!	!	!	!	!	!	!	!	!	!	!	!	!	!	!	!	!	!	!
=21	=21	=21	=21	=21	=21	=21	=21	=21	=21	=21	=21	=21	=21	=21	=21	=21	=21	=21	=21	=21	=21	=21	=21	=21	=21	=21	=21	=21	=21	=21	=21	=21	=21	=21	=21	=21	=21	=21	=21
8G\L	.	.	8d\L	.	(16f#\LL	.	(16a\LL	.	(16cc\LL	.	8D/	Ky-	.	8A/	X-	.	16a\LL	Ky-	.	(16cc\LL	Ky-	.	2ryy	2ryy	2ryy	8d/L	.	8a\L	.	8F#\L	.	8A\L	.	8a\L	.	8cc\L	.	8ccc\L	.
.	.	.	.	.	16a\)	.	16cc\)	.	16ee\)	.	.	.	.	.	.	.	16cc\JJ	.	.	16ee\JJ)	.	.	.	.	.	.	.	.	.	.	.	.	.	.	.	.	.	.	.
8D\J	.	.	8f#\J	.	(16d\	.	(16f#\	.	(16a\	.	8F#/	-ri-	.	8F#/	-ste	.	16f#\LL	-ri-	.	(16a\LL	-ri-	.	.	.	.	8d/	.	8a\	.	8D\J	.	8F#\J	.	16cc\L	.	16ee\L	.	8aa\J	.
.	.	.	.	.	16f#\JJ)	.	16a\JJ)	.	16cc\JJ)	.	.	.	.	.	.	.	16a\JJ	.	.	16cc\JJ)	.	.	.	.	.	.	.	.	.	.	.	.	.	16a\JJ	.	16cc\JJ	.	.	.
!	!	!	!	!	!LO:LB:g=original	!	!	!	!	!	!	!	!	!	!	!	!	!	!	!LO:LB:g=original	!	!	!	!	!	!	!	!	!	!	!	!	!	!	!	!	!	!	!
8G\L	.	.	8g\L	.	8g|\L	.	8g/L	.	(16b\LL	.	8G\	-e	.	(8G/	e-	.	16g\LL	-e	.	8b\	-e	.	.	.	.	8g/J	.	8b\J	.	8G\L	.	8G\L	.	16g/LL	.	8b\L	.	16bb\LL	.
.	.	.	.	.	.	.	.	.	16dd\)	.	.	.	.	.	.	.	16fn\JJ	.	.	.	.	.	.	.	.	.	.	.	.	.	.	.	.	16fn/JJ	.	.	.	16ddd\JJ	.
!	!	!	!	!	!	!	!LO:N:vis=16	!	!	!	!	!	!	!	!	!	!	!	!	!	!	!	!	!	!	!	!	!	!	!	!	!	!	!	!	!	!	!	!
.	.	.	.	.	.	.	.	.	.	.	.	.	.	.	.	.	16qqf/	.	.	.	.	.	.	.	.	.	.	.	.	.	.	.	.	8qqf/	.	.	.	.	.
16E\L	.	.	(32d\LL	.	(16e\L	.	32fn/LL	.	(32dd\L	.	16E\LL	.	.	8e\)	.	.	16e\LL	e-	.	(32dd\LLL	e-	.	.	.	.	8r	.	8r	.	16E\L	.	16E\L	.	16.e/LL	.	(32dd\LL	.	32ddd\LLL	.
!	!	!	!	!	!	!	!LO:N:vis=16	!	!	!	!	!	!	!	!	!	!	!	!	!	!	!	!	!	!	!	!	!	!	!	!	!	!	!	!	!	!	!	!
.	.	.	.	.	.	.	16qqf\	.	.	.	.	.	.	.	.	.	.	.	.	.	.	.	.	.	.	.	.	.	.	.	.	.	.	.	.	.	.	.	.
.	.	.	32c\	.	.	.	32e/	.	32cc\	.	.	.	.	.	.	.	.	.	.	32cc\	.	.	.	.	.	.	.	.	.	.	.	.	.	.	.	32cc\	.	32ccc\	.
16C\JJ	.	.	32B\	.	16c\JJ)	.	32d/	.	32b\	.	16C\JJ	.	.	.	.	.	32d\L	.	.	32b\	.	.	.	.	.	.	.	.	.	16C\JJ	.	16C\JJ	.	.	.	32b\	.	32bb\	.
.	.	.	32A\JJJ)	.	.	.	32c/JJJ	.	32a\JJJ)	.	.	.	.	.	.	.	32c\JJJ	.	.	32a\JJJ)	.	.	.	.	.	.	.	.	.	.	.	.	.	32a/JJk	.	32a\JJJ)	.	32aa\JJJ	.
!	!	!	!	!	!	!	!	!	!	!	!	!	!	!LO:LB:g=original	!	!	!	!	!	!	!	!	!	!	!	!	!	!	!	!	!	!	!	!	!	!	!	!	!
=22	=22	=22	=22	=22	=22	=22	=22	=22	=22	=22	=22	=22	=22	=22	=22	=22	=22	=22	=22	=22	=22	=22	=22	=22	=22	=22	=22	=22	=22	=22	=22	=22	=22	=22	=22	=22	=22	=22	=22
!LO:TX:t=P:problem:mixed beam	!	!	!	!	!	!	!	!	!	!	!	!	!	!	!	!	!	!	!	!	!	!	!	!	!	!	!	!	!	!LO:TX:t=P:problem:mixed beam	!	!LO:TX:t=P:problem:mixed beam	!	!	!	!	!	!	!
8D\L	.	.	16A/KL	.	8d\L	.	16c/LL	.	16a/LL	.	4D/	lei-	.	4d\	-lei-	.	16c/KL	-lei-	.	16a\KL	-lei-	.	2ryy	2ryy	2ryy	8B/	.	8g\	.	8D\L	.	8D\L	.	16a/KL	.	16cc\KL	.	16aa\KL	.
.	.	.	8G/	.	.	.	16B/	.	16g/	.	.	.	.	.	.	.	8B/	.	.	8g\	.	.	.	.	.	.	.	.	.	.	.	.	.	8g/	.	8b\	.	8gg\	.
8DD/J	.	.	.	.	8d\J	.	16B/	.	16g/	.	.	.	.	.	.	.	.	.	.	.	.	.	.	.	.	4d/	.	4a\	.	8DD/J	.	8DD/J	.	.	.	.	.	.	.
.	.	.	16F#/Jk	.	.	.	16B/JJ	.	16f#/JJ	.	.	.	.	.	.	.	16A/Jk	.	.	16f#\Jk	.	.	.	.	.	.	.	.	.	.	.	.	.	16f#X/Jk	.	16a\Jk	.	16ff#\Jk	.
.	.	.	.	.	.	.	.	.	.	.	.	.	.	.	.	.	.	.	.	8qqf#/	.	.	.	.	.	.	.	.	.	.	.	.	.	.	.	.	.	.	.
4GG/	.	.	4G/	.	4d\	.	8A/L	.	8f#/L	.	4GG/	-son	.	4d\	-son	.	8A/L	.	.	4g/	-son	.	.	.	.	.	.	.	.	4GG/	.	4GG/	.	8f#/L	.	8a/L	.	8ff#\L	.
.	.	.	.	.	.	.	8B/J	.	8g/J	.	.	.	.	.	.	.	8B/J	-son	.	.	.	.	.	.	.	8B/	.	8g\	.	.	.	.	.	8g/J	.	8g/J	.	8gg\J	.
!	!	!	!	!	!	!	!	!	!	!	!	!	!	!	!	!	!	!	!	!	!	!	!	!	!	!	!	!	!	!	!	!	!	!	!	!LO:LB:g=original	!	!	!
=23||	=23||	=23||	=23||	=23||	=23||	=23||	=23||	=23||	=23||	=23||	=23||	=23||	=23||	=23||	=23||	=23||	=23||	=23||	=23||	=23||	=23||	=23||	=23||	=23||	=23||	=23||	=23||	=23||	=23||	=23||	=23||	=23||	=23||	=23||	=23||	=23||	=23||	=23||	=23||
!	!	!	!LO:TX:t=P:problem:mixed beam	!LO:DY:a:t=pia	!	!	!	!LO:DY:a:t=p.	!	!LO:DY:t=pia	!LO:TX:a:t=2	!	!	!LO:TX:a:t=2.	!	!	!LO:TX:a:i:t=dolce	!	!	!LO:TX:a:i:t=dolce.	!	!	!	!	!	!	!LO:DY:t=p&colon;	!	!LO:DY:t=pia	!	!LO:DY:a:t=Piano	!	!	!LO:TX:a:t=2	!	!LO:TX:a:t=2	!	!LO:TX:a:t=2	!
8G\L	3	.	8D/L	p	16B/LL	p	16g/LL	p	16b\LL	p	1r	.	.	1r	.	.	16g\LL	Chri-	.	16b\LL	Chri-	.	2ryy	2ryy	2ryy	4G/	p	4g\	p	8G\L	p	8G\L	p	1r	.	1r	.	1r	.
.	.	.	.	.	32A/L	.	32f#/L	.	32a\L	.	.	.	.	.	.	.	32f#\L	.	.	32a\L	.	.	.	.	.	.	.	.	.	.	.	.	.	.	.	.	.	.	.
.	.	.	.	.	32B/JJJ	.	32g/JJJ	.	32b\JJJ	.	.	.	.	.	.	.	32g\JJJ	.	.	32b\JJJ	.	.	.	.	.	.	.	.	.	.	.	.	.	.	.	.	.	.	.
8D\	3	.	8d\	.	16c/LL	.	16a/LL	.	16cc\LL	.	.	.	.	.	.	.	16a\LL	-ste	.	16cc\LL	-ste	.	.	.	.	.	.	.	.	8D\	.	8D\	.	.	.	.	.	.	.
.	.	.	.	.	16B/JJ	.	16g/JJ	.	16b\JJ	.	.	.	.	.	.	.	16g\JJ	.	.	16b\JJ	.	.	.	.	.	.	.	.	.	.	.	.	.	.	.	.	.	.	.
8F#\	.	.	8D/	.	8B/L	.	8g/L	.	8b\L	.	.	.	.	.	.	.	8g\L	Chri-	.	8b\L	X-	.	.	.	.	4D/	.	4d/	.	8F#\	.	8F#\	.	.	.	.	.	.	.
8D\J	.	.	8d\J	.	16A/L	.	16f#/L	.	16a\L	.	.	.	.	.	.	.	16f#\L	.	.	(16a\L	.	.	.	.	.	.	.	.	.	8D\J	.	8D\J	.	.	.	.	.	.	.
.	.	.	.	.	16B/JJ	.	16g/JJ	.	16b\JJ	.	.	.	.	.	.	.	16g\JJ	.	.	16b\JJ	.	.	.	.	.	.	.	.	.	.	.	.	.	.	.	.	.	.	.
=24	=24	=24	=24	=24	=24	=24	=24	=24	=24	=24	=24	=24	=24	=24	=24	=24	=24	=24	=24	=24	=24	=24	=24	=24	=24	=24	=24	=24	=24	=24	=24	=24	=24	=24	=24	=24	=24	=24	=24
!LO:TX:t=P:problem:mixed beam	!	!	!LO:TX:t=P:problem:mixed beam	!	!	!	!	!	!	!	!	!	!	!	!	!	!	!	!	!	!	!	!	!	!	!	!	!	!	!LO:TX:t=P:problem:mixed beam	!	!	!	!	!	!	!	!	!
8A\L	3	.	8D/L	.	16c\LL	.	16a\LL	.	16cc\LL	.	.	.	.	.	.	.	16a\LL	.	.	16cc\LL)	.	.	2ryy	2ryy	2ryy	4D/	.	4d/	.	8A\L	.	8A\L	.	.	.	.	.	.	.
.	.	.	.	.	32d\L	.	32b\L	.	32dd\L	.	.	.	.	.	.	.	32b\L	.	.	32dd\L	.	.	.	.	.	.	.	.	.	.	.	.	.	.	.	.	.	.	.
.	.	.	.	.	32e\JJJ	.	32cc\JJJ	.	32ee\JJJ	.	.	.	.	.	.	.	32cc\JJJ	.	.	32ee\JJJ	.	.	.	.	.	.	.	.	.	.	.	.	.	.	.	.	.	.	.
!	!	!	!	!	!	!	!	!	!	!	!	!	!	!	!	!	!LO:LB:g=original	!	!	!	!	!	!	!	!	!	!	!	!	!	!	!	!	!	!	!	!	!	!
8F#\	6	.	8d\	.	16d\LL	.	16b/LL	.	16dd\LL	.	.	.	.	.	.	.	16b\	-ste	.	16dd\	-ste	.	.	.	.	.	.	.	.	8F#\	.	8F#\J	.	.	.	.	.	.	.
.	.	.	.	.	16c\JJ	.	16a/JJ	.	16cc\JJ	.	.	.	.	.	.	.	16a\	e-	.	16cc\	e-	.	.	.	.	.	.	.	.	.	.	.	.	.	.	.	.	.	.
!	!	!	!	!	!	!	!	!	!	!	!	!	!	!	!	!	!	!	!	!	!	!	!	!	!	!	!	!	!	!	!	!LO:LB:g=original	!	!	!	!	!	!	!
!	!	!	!	!	!	!	!	!	!	!	!	!	!	!	!	!	!	!	!	!	!	!	!	!	!	!	!	!	!	!	!	!LO:TX:t=P:problem:mixed beam	!	!	!	!	!	!	!
8G\	3	.	8D/	.	8c/L	.	8a/L	.	8cc\L	.	.	.	.	.	.	.	8a\	-lei-	.	8cc\	-lei-	.	.	.	.	4G/	.	4g\	.	8G\	.	8G\L	.	.	.	.	.	.	.
!	!	!	!	!	!	!	!	!LO:DY:a	!	!	!	!	!	!	!	!	!	!	!	!	!	!	!	!	!	!	!	!	!	!	!	!	!	!	!	!	!	!	!
8GG/J	.	.	8d\J	.	8B/J	.	8g/J	f	8b\J	.	.	.	.	.	.	.	8g\	-son	.	8b\	-son	.	.	.	.	.	.	.	.	8GG/J	.	8GG/J	.	.	.	.	.	.	.
!	!	!	!	!	!	!	!LO:LB:g=original	!	!	!	!	!	!	!	!	!	!	!	!	!	!	!	!	!	!	!	!	!	!	!	!	!	!	!	!	!	!	!	!
=25	=25	=25	=25	=25	=25	=25	=25	=25	=25	=25	=25	=25	=25	=25	=25	=25	=25	=25	=25	=25	=25	=25	=25	=25	=25	=25	=25	=25	=25	=25	=25	=25	=25	=25	=25	=25	=25	=25	=25
!	!	!	!	!LO:DY:a	!	!	!	!LO:DY:a:t=forte	!	!	!	!	!LO:DY:a	!	!	!LO:DY:a:t=for&colon;	!	!	!LO:DY:a	!	!	!LO:DY:a:t=for&colon;	!	!	!	!	!	!	!	!	!LO:DY:a:t=for&colon;	!	!LO:DY:a:t=Forte	!	!	!	!	!	!LO:DY:t=for&colon;
8F#\L	6	.	8d\L	f	8a\L	f	8f#/L	f	8dd'\L	f	8F#/	Ky-	f	8A/	Ky-	f	8f#\	Ky-	f	8dd\	Ky-	f	2ryy	2ryy	2ryy	8d/L	f	8a\L	f	8D\L	f	8D\L	f	8f#/L	.	8dd\L	.	8ddd'\L	f
8D\	.	.	8f#\	.	8d\J	.	16f#/L	.	(16dd\L	.	8D/	-ri-	.	8A/	-ri-	.	16f#\LL	-ri-	.	16dd\LL	-ri-	.	.	.	.	8d/	.	8a\	.	8F#\	.	8F#\	.	(16f#/L	.	16dd\L	.	(16ddd\L	.
.	.	.	.	.	.	.	16a/JJ	.	16cc\JJ)	.	.	.	.	.	.	.	16a\JJ	.	.	16cc\JJ	.	.	.	.	.	.	.	.	.	.	.	.	.	16a/JJ)	.	16cc\JJ	.	16ccc\JJ)	.
!	!	!	!	!	!	!	!	!	!LO:LB:g=original	!	!LO:LB:g=original	!	!	!	!	!	!	!	!	!	!	!	!	!	!	!	!	!	!	!	!	!	!	!	!	!	!	!	!
8G\	3	.	8g\	.	16b\LL	.	16g|/LL	.	16b'\LL	.	16G\LL	-e	.	16B\LL	-e	.	16g\LL	-e	.	16b\LL	-e	.	.	.	.	8g/J	.	8b\J	.	8G\	.	8G\	.	(16g/LL	.	16b|\LL	.	8bb\	.
.	.	.	.	.	16e\	.	(16g/	.	16ee'\	.	16E\JJ	.	.	16e\JJ	.	.	16e\JJ	.	.	16ee\JJ	.	.	.	.	.	.	.	.	.	.	.	.	.	16e/	.	(16ee\	.	.	.
8G\J	.	.	8b\J	.	16f#\	.	16a/	.	16ff#'\	.	16F#\LL	e-	.	16f#\LL	e-	.	16f#\LL	e-	.	16ff#\LL	e-	.	.	.	.	8r	.	8r	.	8E\J	.	8E\J	.	16f#/	.	16ff#\	.	8r	.
.	.	.	.	.	16g\JJ	.	16b/JJ)	.	16gg'\JJ	.	16G\JJ	.	.	16g\JJ	.	.	16g\JJ	.	.	16gg\JJ	.	.	.	.	.	.	.	.	.	.	.	.	.	16g/JJ)	.	16gg\JJ)	.	.	.
!	!	!	!	!	!	!	!	!	!	!	!	!	!	!	!	!	!	!	!	!	!	!	!	!	!	!	!	!	!	!	!	!	!	!	!	!	!	!LO:LB:g=original	!
=26	=26	=26	=26	=26	=26	=26	=26	=26	=26	=26	=26	=26	=26	=26	=26	=26	=26	=26	=26	=26	=26	=26	=26	=26	=26	=26	=26	=26	=26	=26	=26	=26	=26	=26	=26	=26	=26	=26	=26
!LO:TX:t=P:problem:mixed beam	!	!	!	!	!	!	!	!	!	!	!LO:TX:t=P:problem:mixed beam	!	!	!	!	!	!	!	!	!	!	!	!	!	!	!	!	!	!	!LO:TX:t=P:problem:mixed beam	!	!LO:TX:t=P:problem:mixed beam	!	!	!	!	!	!	!
8A\L	4	.	(16a\LL	.	8a\L	.	8f#/L	.	8dd\L	.	8A\L	-lei-	.	8f#\L	-lei-	.	8f#\L	-lei-	.	8dd\L	-lei-	.	2ryy	2ryy	2ryy	8a\L	.	8a\L	.	8A\L	.	8A\L	.	(8f#/L	.	8dd\L	.	8ddd\L	.
!	!	!	!LO:SIC:v:s=16g\	!	!	!	!	!	!	!	!	!	!	!	!	!	!	!	!	!	!	!	!	!	!	!	!	!	!	!	!	!	!	!	!	!	!	!	!
.	.	.	16f#\	.	.	.	.	.	.	.	.	.	.	.	.	.	.	.	.	.	.	.	.	.	.	.	.	.	.	.	.	.	.	.	.	.	.	.	.
!	!	!	!LO:SIC:v:16f#\	!	!	!	!	!	!	!	!	!	!	!	!	!	!	!	!	!	!	!	!	!	!	!	!	!	!	!	!	!	!	!	!	!	!	!	!
8AA/J	#	.	16e#X\	.	8a\J	.	8e/J	.	8cc#X\J	.	8AA/J	.	.	8e\J	.	.	8e\J	.	.	8cc#X\J	.	.	.	.	.	8a\J	.	8a\J	.	8AA/J	.	8AA/J	.	8e/J)	.	8cc#X\J	.	8ccc#X\J	.
!	!	!	!LO:SIC:v:s=16e\JJ)	!	!	!	!	!	!	!	!	!	!	!	!	!	!	!	!	!	!	!	!	!	!	!	!	!	!	!	!	!	!	!	!	!	!	!	!
.	.	.	16c\JJ)	.	.	.	.	.	.	.	.	.	.	.	.	.	.	.	.	.	.	.	.	.	.	.	.	.	.	.	.	.	.	.	.	.	.	.	.
.	.	.	.	.	.	.	.	.	8qee/	.	.	.	.	.	.	.	.	.	.	.	.	.	.	.	.	.	.	.	.	.	.	.	.	.	.	16qqee/	.	8qqeee/	.
4D\	.	.	4d\	.	4a\	.	4f#/	.	4dd\	.	4D/	-son	.	4d\	-son	.	4f#\	-son	.	4dd\	-son	.	.	.	.	4d/	.	4a\	.	4D\	.	4D\	.	4f#/	.	4dd\	.	4ddd\	.
=27	=27	=27	=27	=27	=27	=27	=27	=27	=27	=27	=27	=27	=27	=27	=27	=27	=27	=27	=27	=27	=27	=27	=27	=27	=27	=27	=27	=27	=27	=27	=27	=27	=27	=27	=27	=27	=27	=27	=27
!LO:TX:a:i:t=Solo	!	!	!	!LO:DY:a:t=pia	!	!	!	!LO:DY:a:t=p.	!	!LO:DY:t=pia	!LO:TX:a:i:t=dolce	!	!	!LO:TX:a:i:t=dolce.	!	!	!LO:TX:a:t=2.	!	!	!LO:TX:a:t=2	!	!	!	!	!	!LO:TX:a:t=2	!	!LO:TX:a:t=2	!	!	!LO:DY:a:t=Pia&colon;	!	!LO:DY:a:t=Piano	!LO:TX:a:t=2	!	!LO:TX:a:t=2	!	!	!
8G\L	.	.	8g\L	p	8a\L	.	(16g/LL	p	16b\LL	p	16G\LL	Chri-	.	16B\LL	Chri-	.	1r	.	.	1r	.	.	2ryy	2ryy	2ryy	1r	.	1r	.	8G\L	p	8G\L	p	1r	.	1r	.	16bb\LL	.
!	!	!	!	!	!	!	!	!	!	!	!	!	!	!	!	!	!	!	!	!	!	!	!	!	!	!	!	!	!	!	!	!	!	!	!	!	!	!	!LO:DY:t=piano
.	.	.	.	.	.	.	32f#/L	.	32a\L	.	32F#\L	.	.	32A\L	.	.	.	.	.	.	.	.	.	.	.	.	.	.	.	.	.	.	.	.	.	.	.	(32aa\L	p
.	.	.	.	.	.	.	32g/JJJ)	.	32b\JJJ	.	32G\JJJ	.	.	32B\JJJ	.	.	.	.	.	.	.	.	.	.	.	.	.	.	.	.	.	.	.	.	.	.	.	32bb\JJJ)	.
!	!	!	!	!	!	!LO:DY:a:t=p	!	!	!	!	!	!	!	!	!	!	!	!	!	!	!	!	!	!	!	!	!	!	!	!	!	!	!	!	!	!	!	!	!
8D\	.	.	8d\	.	8d\	p	16a/LL	.	16ccn\LL	.	16A\LL	-ste	.	16c\LL	-ste	.	.	.	.	.	.	.	.	.	.	.	.	.	.	8D\	.	8D\	.	.	.	.	.	(16cccn\LL	.
.	.	.	.	.	.	.	16g/JJ	.	16b\JJ	.	16G\JJ	.	.	16B\JJ	.	.	.	.	.	.	.	.	.	.	.	.	.	.	.	.	.	.	.	.	.	.	.	16bb\JJ)	.
*	*	*	*	*	*	*	*	*	*	*	*	*ij	*	*	*ij	*	*	*	*	*	*	*	*	*	*	*	*	*	*	*	*	*	*	*	*	*	*	*	*
8F#\	.	.	8f#\	.	8f#\	.	(16g/LL	.	8b\L	.	16G\LL	Chri-	.	16B\LL	Chri-	.	.	.	.	.	.	.	.	.	.	.	.	.	.	8F#\	.	8F#\	.	.	.	.	.	(16bb\LL	.
.	.	.	.	.	.	.	16f#/J)	.	.	.	16F#\JJ	.	.	16A\JJ	.	.	.	.	.	.	.	.	.	.	.	.	.	.	.	.	.	.	.	.	.	.	.	16aa\J)	.
8D\J	.	.	8d\J	.	8d\J	.	8f#|/J	.	16a\L	.	8F#\	-ste	.	8A/	-ste	.	.	.	.	.	.	.	.	.	.	.	.	.	.	8D\J	.	8D\J	.	.	.	.	.	8aa'\J	.
*	*	*	*	*	*	*	*	*	*	*	*	*Xij	*	*	*Xij	*	*	*	*	*	*	*	*	*	*	*	*	*	*	*	*	*	*	*	*	*	*	*	*
.	.	.	.	.	.	.	.	.	16a\JJ	.	.	.	.	.	.	.	.	.	.	.	.	.	.	.	.	.	.	.	.	.	.	.	.	.	.	.	.	.	.
=28	=28	=28	=28	=28	=28	=28	=28	=28	=28	=28	=28	=28	=28	=28	=28	=28	=28	=28	=28	=28	=28	=28	=28	=28	=28	=28	=28	=28	=28	=28	=28	=28	=28	=28	=28	=28	=28	=28	=28
8C#X/L	.	.	8c/L	.	8A/L	.	16e/LL	.	16g/LL	.	16E\LL	X-	.	16G/LL	Chri-	.	.	.	.	.	.	.	2ryy	2ryy	2ryy	.	.	.	.	8C#X/L	.	8C#X/L	.	.	.	.	.	16gg\LL	.
.	.	.	.	.	.	.	32f#/L	.	32a/L	.	32F#\L	.	.	32A/L	.	.	.	.	.	.	.	.	.	.	.	.	.	.	.	.	.	.	.	.	.	.	.	32aa\L	.
.	.	.	.	.	.	.	32g/JJJ	.	32b/JJJ	.	32G\JJJ	.	.	32B/JJJ	.	.	.	.	.	.	.	.	.	.	.	.	.	.	.	.	.	.	.	.	.	.	.	32bb\JJJ	.
8AA/J	.	.	8A/J	.	8c/	.	16f#/LL	.	16a/LL	.	16F#\	-ste	.	16A/	-ste	.	.	.	.	.	.	.	.	.	.	.	.	.	.	8AA/	.	8AA/	.	.	.	.	.	16aa\LL	.
.	.	.	.	.	.	.	16e/JJ	.	16g/JJ	.	16E\	e-	.	16G/	e-	.	.	.	.	.	.	.	.	.	.	.	.	.	.	.	.	.	.	.	.	.	.	16gg\JJ	.
!LO:LB:g=original	!	!	!	!	!	!	!	!	!	!	!	!	!	!	!	!	!	!	!	!	!	!	!	!	!	!	!	!	!	!	!	!	!	!	!	!	!	!	!
!LO:TX:t=P:problem:mixed beam	!	!	!LO:TX:t=P:problem:mixed beam	!	!	!	!	!	!	!	!	!	!	!	!	!	!	!	!	!	!	!	!	!	!	!	!	!	!	!	!	!	!	!	!	!	!	!	!
8D\L	.	.	8D/L	.	8d/	.	8e/L	.	8g/L	.	8E\	-lei-	.	8G/	-lei-	.	.	.	.	.	.	.	.	.	.	.	.	.	.	8D/	.	8D/	.	.	.	.	.	8gg\L	.
8DD/J	.	.	8d\J	.	8d/J	.	8d/J	.	8f#/J	.	8D/	-son	.	8F#/	-son.	.	.	.	.	.	.	.	.	.	.	.	.	.	.	8DD/J	.	8DD/J	.	.	.	.	.	8ff#\J	.
!	!	!	!	!	!	!	!	!	!	!	!	!	!	!LO:LB:g=original	!	!	!	!	!	!	!	!	!	!	!	!	!	!	!	!	!	!	!	!	!	!	!	!	!
=29	=29	=29	=29	=29	=29	=29	=29	=29	=29	=29	=29	=29	=29	=29	=29	=29	=29	=29	=29	=29	=29	=29	=29	=29	=29	=29	=29	=29	=29	=29	=29	=29	=29	=29	=29	=29	=29	=29	=29
!LO:TX:a:i:t=Tutti	!	!	!	!	!	!LO:DY:a:t=f&colon;	!	!LO:DY:a:t=forte	!	!	!	!	!LO:DY:a:t=for&colon;	!	!	!LO:DY:a:t=for&colon;	!	!	!LO:DY:a:t=for.	!	!	!LO:DY:t=for&colon;	!	!	!	!	!	!	!LO:DY:t=for&colon;	!	!	!	!	!	!	!	!	!	!LO:DY:t=for.
8D\L	.	.	16a\LL	.	(16f#\LL	f	8f#/L	f	8a\L	f	8F#\	Ky-	f	8d\	Ky-	f	8f#\	Ky-	f	8a\	Ky-	f	2ryy	2ryy	2ryy	8d/L	f	8a\L	f	8D\L	f	8D\L	f	8f#/L	.	8a\L	.	8aa\L	f
.	.	.	16f#\	.	16d\)	.	.	.	.	.	.	.	.	.	.	.	.	.	.	.	.	.	.	.	.	.	.	.	.	.	.	.	.	.	.	.	.	.	.
8F#\	.	.	16a\	.	(16f#\	.	16f#/L	.	16dd\L	.	8D\	-ri-	.	8d\	-ri-	.	16a\LL	-ri-	.	16dd\LL	-ri-	.	.	.	.	8d/	.	8a\	.	8F#\J	.	8F#\J	.	16f#/L	.	16dd\L	.	16ddd\L	.
.	.	.	16f#\JJ	f	16d\JJ)	.	16a/JJ	.	16cc\JJ	.	.	.	.	.	.	.	16f#\JJ	.	.	16ccn\JJ	.	.	.	.	.	.	.	.	.	.	.	.	.	16a/JJ	.	16cc\JJ	.	16ccc\JJ	.
!	!	!	!	!	!	!	!	!	!	!	!	!	!	!	!	!	!	!	!	!	!	!	!	!	!	!	!	!	!	!	!	!	!	!	!	!LO:TX:t=P:problem:mixed beam	!	!	!
8G\	.	.	8g\L	.	8b\L	.	16g/LL	.	16b\LL	.	8G\	-e	.	8d\	-e	.	16g\LL	-e	.	16b\LL	-e	.	.	.	.	8g/J	.	8b\J	.	8G\L	.	8G\L	.	16g/LL	.	16g/LL	.	8bb\	.
.	.	.	.	.	.	.	16b/	.	16gg'\	.	.	.	.	.	.	.	16b\JJ	.	.	16gg\JJ	.	.	.	.	.	.	.	.	.	.	.	.	.	16b/	.	16gg\	.	.	.
8E\J	.	.	8e\J	.	8g\J	.	16a/	.	16ff#'\	.	8G\	e-	.	8e\	e-	.	16a\LL	e-	.	16ff#\LL	e-	.	.	.	.	8r	.	8r	.	16E\L	.	16E\L	.	16a/	.	16ff#\	.	16r	.
!	!	!	!	!	!	!	!	!	!	!	!	!	!	!	!	!	!	!	!	!	!	!	!	!	!	!	!	!	!	!	!	!	!	!	!	!	!	!LO:N:vis=8	!
.	.	.	.	.	.	.	16g/JJ	.	16ee'\JJ	.	.	.	.	.	.	.	16g\JJ	.	.	16ee\JJ	.	.	.	.	.	.	.	.	.	16G\JJ	.	16G\JJ	.	16g/JJ	.	16ee\JJ	.	16eee\	.
!	!	!	!	!	!	!	!	!	!	!	!	!	!	!	!	!	!	!	!	!LO:LB:g=original	!	!	!	!	!	!	!	!	!	!LO:LB:g=original	!	!	!	!	!	!	!	!	!
=30	=30	=30	=30	=30	=30	=30	=30	=30	=30	=30	=30	=30	=30	=30	=30	=30	=30	=30	=30	=30	=30	=30	=30	=30	=30	=30	=30	=30	=30	=30	=30	=30	=30	=30	=30	=30	=30	=30	=30
!LO:TX:t=P:problem:mixed beam	!	!	!	!	!	!	!	!	!	!	!LO:TX:t=P:problem:mixed beam	!	!	!	!	!	!	!	!	!	!	!	!	!	!	!	!	!	!	!LO:TX:t=P:problem:mixed beam	!	!LO:TX:t=P:problem:mixed beam	!	!	!	!	!	!	!
8A\L	4	.	8d\L	.	8a\L	.	8f#/L	.	8dd'\L	.	8A\L	-lei-	.	4A/	-lei-	.	8f#\L	-lei-	.	8dd\L	-lei-	.	2ryy	2ryy	2ryy	8a\L	.	8a\L	.	8A\L	.	8A\L	.	8f#/L	.	8dd\L	.	8ddd\L	.
8AA/J	# 3	.	8c#X\J	.	8a\J	.	8e/J	.	8cc#X'\J	.	8AA/J	.	.	.	.	.	8e\J	.	.	8cc#X\J	.	.	.	.	.	8a\J	.	8a\J	.	8AA/J	.	8AA/J	.	8e/J	.	8cc#X\J	.	8ccc#X\J	.
4D\	.	.	4d\	.	4a\	.	4f#/	.	4dd\	.	4D/	-son	.	4A/	-son	.	4f#\	-son	.	4dd\	-son	.	.	.	.	4d/	.	4a\	.	4D\	.	4D\	.	4f#/	.	4dd\	.	4ddd\	.
!	!	!	!	!	!	!	!	!	!	!	!	!	!	!	!	!	!	!	!	!	!	!	!	!	!	!LO:LB:g=original	!	!	!	!	!	!	!	!	!	!	!	!	!
=31	=31	=31	=31	=31	=31	=31	=31	=31	=31	=31	=31	=31	=31	=31	=31	=31	=31	=31	=31	=31	=31	=31	=31	=31	=31	=31	=31	=31	=31	=31	=31	=31	=31	=31	=31	=31	=31	=31	=31
!LO:TX:t=P:problem:mixed beam	!	!	!LO:TX:t=P:problem:mixed beam	!	!	!	!	!	!	!	!	!	!	!	!	!	!	!	!	!	!	!	!	!	!	!	!	!	!	!LO:TX:a:i:t=Solo	!	!LO:TX:a:i:t=Dolce&colon;	!	!	!	!	!	!	!
8GG/L	.	.	8G/L	.	8.B/L	.	8.gL 8.G/	.	8.bL 8.d 8.G/	.	8.G\	Ky-	.	8.G/	Ky-	.	8.g\	Ky-	.	8.b\	Ky-	.	2ryy	2ryy	2ryy	4G/	.	4g\	.	8.G\L	.	8.B\L	.	8.g/L	.	8.b\L	.	8.bb\L	.
8G\J	.	.	8g\	.	.	.	.	.	.	.	.	.	.	.	.	.	.	.	.	.	.	.	.	.	.	.	.	.	.	.	.	.	.	.	.	.	.	.	.
.	.	.	.	.	16c/Jk	.	16a/Jk	.	16ccn/Jk	.	16G\	-ri-	.	16G/	-ri-	.	16a\	-ri-	.	16cc\	-ri-	.	.	.	.	.	.	.	.	16A\Jk	.	16c\Jk	.	16a/Jk	.	16cc\Jk	.	16ccc\Jk	.
!LO:TX:t=P:problem:mixed beam	!	!	!	!	!LO:LB:g=original	!	!	!	!	!	!	!	!	!	!	!	!	!	!	!	!	!	!	!	!	!	!	!	!	!	!	!	!	!	!	!	!	!	!
8GG/L	.	.	8G/	.	8d\L	.	8b/L	.	8dd\L	.	4G\	-e	.	4G/	-e	.	4b\	-e	.	4dd\	-e	.	.	.	.	4G/	.	4g\	.	8B\L	.	8d\L	.	8b/L	.	8dd\L	.	8ddd'\L	.
8G\J	.	.	8g\J	.	8d\J	.	8b/J	.	8dd\J	.	.	.	.	.	.	.	.	.	.	.	.	.	.	.	.	.	.	.	.	8B\J	.	8d\J	.	8b/J	.	8dd\J	.	8ddd'\J	.
!	!	!	!	!	!	!	!	!	!	!	!LO:LB:g=original	!	!	!	!	!	!LO:LB:g=original	!	!	!	!	!	!	!	!	!	!	!	!	!	!	!	!	!	!	!	!	!	!
=32	=32	=32	=32	=32	=32	=32	=32	=32	=32	=32	=32	=32	=32	=32	=32	=32	=32	=32	=32	=32	=32	=32	=32	=32	=32	=32	=32	=32	=32	=32	=32	=32	=32	=32	=32	=32	=32	=32	=32
*	*	*	*	*	*	*	*	*	*	*	*	*	*	*	*ij	*	*	*	*	*	*	*	*	*	*	*	*	*	*	*	*	*	*	*	*	*	*	*	*
!LO:TX:t=P:problem:mixed beam	!	!	!LO:TX:t=P:problem:mixed beam	!	!	!	!	!	!	!	!	!	!	!	!	!	!	!	!	!	!	!	!	!	!	!	!	!	!	!	!	!	!	!	!	!	!	!	!
8GG/L	.	.	8G/L	.	8e\L	.	8cc\L	.	8ee\L	.	4G\	e-	.	4G/	Ky-	.	8cc|\L	e-	.	8ee|\L	e-	.	2ryy	2ryy	2ryy	4G/	.	4g\	.	8.c\L	.	8.e\L	.	8cc\L	.	8ee\L	.	8eee\L	.
.	.	.	.	.	.	.	.	.	8qqaa/	.	.	.	.	.	.	.	.	.	.	.	.	.	.	.	.	.	.	.	.	.	.	.	.	.	.	.	.	.	.
!	!	!	!	!	!	!	!LO:TUP:a:problem:klamra łukowa	!	!LO:TUP:a:problem:klamra łukowa	!	!	!	!	!	!	!	!LO:TUP:a:problem:klamra łukowa	!	!	!LO:TUP:a:problem:klamra łukowa	!	!	!	!	!	!	!	!	!	!	!	!	!	!LO:TUP:a:problem:klamra łukowa	!	!LO:TUP:a:problem:klamra łukowa	!	!LO:TUP:a:problem:klamra łukowa	!
8G\J	.	.	8g\	.	24g\L	.	24ee\L	.	24gg\L	.	.	.	.	.	.	.	24ee\L	.	.	24gg\L	.	.	.	.	.	.	.	.	.	.	.	.	.	24ee\L	.	24gg\L	.	24ccc\L	.
.	.	.	.	.	24f#\	.	24dd\	.	24ff#\	.	.	.	.	.	.	.	24dd\	.	.	24ff#\	.	.	.	.	.	.	.	.	.	.	.	.	.	24dd\	.	24ff#\	.	24ddd\	.
.	.	.	.	.	.	.	.	.	.	.	.	.	.	.	.	.	.	.	.	.	.	.	.	.	.	.	.	.	.	16c\Jk	.	16e\Jk	.	.	.	.	.	.	.
.	.	.	.	.	24e\JJ	.	24cc\JJ	.	24ee\JJ	.	.	.	.	.	.	.	24cc\JJ	.	.	24ee\JJ	.	.	.	.	.	.	.	.	.	.	.	.	.	24cc\JJ	.	24ee\JJ	.	24eee\JJ	.
!LO:TX:t=P:problem:mixed beam	!	!	!	!	!	!	!	!	!	!	!	!	!	!	!	!	!	!	!	!	!	!	!	!	!	!	!	!	!	!	!	!	!	!	!	!	!	!	!
8GG/L	.	.	8G/	.	8e\L	.	8cc\L	.	8ee\L	.	8c\	-lei-	.	8G/	-ri-	.	8cc\	-lei-	.	8ee\	-lei-	.	.	.	.	4G/	.	4g\	.	(8c\L	.	8e\L	.	8cc\L	.	8ee\L	.	8eee\L	.
8G\J	.	.	8g\J	.	8d\J	.	8b\J	.	8dd\J	.	8G\	-son	.	8G/	-e	.	8b\	-son	.	8dd\	-son	.	.	.	.	.	.	.	.	8B\J)	.	8d\J	.	8b\J	.	8dd\J	.	8ddd\J	.
!	!	!	!LO:LB:g=original	!	!	!	!	!	!	!	!	!	!	!	!	!	!	!	!	!	!	!	!	!	!	!	!	!	!	!	!	!LO:LB:g=original	!	!LO:LB:g=original	!	!	!	!	!
=33	=33	=33	=33	=33	=33	=33	=33	=33	=33	=33	=33	=33	=33	=33	=33	=33	=33	=33	=33	=33	=33	=33	=33	=33	=33	=33	=33	=33	=33	=33	=33	=33	=33	=33	=33	=33	=33	=33	=33
8D\L	.	.	8d\L	.	(16c\LL	.	16a/LL	.	16cc\LL	.	8D/	Ky-	.	8A/	Ky-	.	8a\	Ky-	.	8cc\	Ky-	.	2ryy	2ryy	2ryy	8d/L	.	8a\L	.	8A\L	.	8cn\L	.	8a/L	.	8cc\L	.	8ccc\L	.
.	.	.	.	.	16e\)	.	16cc/	.	16ee\	.	.	.	.	.	.	.	.	.	.	.	.	.	.	.	.	.	.	.	.	.	.	.	.	.	.	.	.	.	.
16F#\L	.	.	16f#\L	.	(16A\	.	16f#/	.	16a\	.	8F#/	-ri-	.	8F#/	-ri-	.	16cc\LL	-ri-	.	16ee\LL	-ri-	.	.	.	.	8d/	.	8a\	.	16F#\L	.	16A\L	.	16cc/L	.	16ee\L	.	16aa\L	.
16D\JJ	.	.	16d\JJ	.	16c\JJ)	.	16a/JJ	.	16cc\JJ	.	.	.	.	.	.	.	16a\JJ	.	.	16cc\JJ	.	.	.	.	.	.	.	.	.	16A\JJ	.	16c\JJ	.	16a/JJ	.	16cc\JJ	.	16ccc\JJ	.
!	!	!	!	!	!	!	!	!	!LO:LB:g=original	!	!	!	!	!	!	!	!	!	!	!	!	!	!	!	!	!	!	!	!	!	!	!	!	!	!	!	!	!	!
8G\L	.	.	16g\LL	.	8B|/L	.	16g/LL	.	8b\L	.	8G\	-e	.	8G/	-e	.	16g\LL	-e	.	8b\	-e	.	.	.	.	8g/J	.	8b\J	.	16G\LL	.	8B\L	.	16g/LL	.	8b\L	.	8bb\L	.
*	*	*	*	*	*	*	*	*	*	*	*	*	*	*	*Xij	*	*	*	*	*	*	*	*	*	*	*	*	*	*	*	*	*	*	*	*	*	*	*	*
.	.	.	16e\	.	.	.	16fn/JJ	.	.	.	.	.	.	.	.	.	16fn\JJ	.	.	.	.	.	.	.	.	.	.	.	.	16Fn\JJ	.	.	.	(16fn/JJ	.	.	.	.	.
!	!	!	!	!	!	!	!LO:LB:g=original	!	!	!	!	!	!	!	!	!	!	!	!	!	!	!	!	!	!	!	!	!	!	!	!	!	!	!	!	!	!	!	!
16E\L	.	.	16c\	.	(16c/L	.	(32f/LLL	.	(32dd\LL	.	8C/	e-	.	8e\	.	.	16e\LL	e-	.	(32dd\LLL	e-	.	.	.	.	8r	.	8r	.	(32F\LLL	.	(32d\LL	.	16e/LL	.	(32dd\LL	.	(32ddd\LL	.
.	.	.	.	.	.	.	32e/	.	32cc\	.	.	.	.	.	.	.	.	.	.	32cc\	.	.	.	.	.	.	.	.	.	32E\	.	32c\	.	.	.	32cc\	.	32ccc\	.
16Cn\JJ	.	.	16A\JJ	.	16e/JJ)	.	32d/	.	32b\	.	.	.	.	.	.	.	16c\JJ	.	.	32b\	.	.	.	.	.	.	.	.	.	32D\	.	32B\	.	16a/JJ)	.	32b\	.	32bb\	.
.	.	.	.	.	.	.	32c/JJJ)	.	32a\JJJ)	.	.	.	.	.	.	.	.	.	.	32a\JJJ)	.	.	.	.	.	.	.	.	.	32C\JJJ)	.	32A\JJJ)	.	.	.	32a\JJJ)	.	32aa\JJJ)	.
!	!	!	!	!	!	!	!	!	!	!	!	!	!	!	!	!	!	!	!	!	!	!	!	!	!	!	!	!	!	!	!	!	!	!	!	!	!	!LO:LB:g=original	!
=34	=34	=34	=34	=34	=34	=34	=34	=34	=34	=34	=34	=34	=34	=34	=34	=34	=34	=34	=34	=34	=34	=34	=34	=34	=34	=34	=34	=34	=34	=34	=34	=34	=34	=34	=34	=34	=34	=34	=34
!LO:TX:t=P:problem:mixed beam	!	!	!	!	!	!	!	!	!	!	!	!	!	!	!	!	!	!	!	!	!	!	!	!	!	!LO:TX:t=P:problem:mixed beam	!	!	!	!LO:TX:t=P:problem:mixed beam	!	!	!	!	!	!	!	!	!
8D\L	.	.	8G/L	.	8d\L	.	8B/L	.	8g/L	.	4D/	-lei-	.	4d\	Ky-	.	8B/L	-lei-	.	8g/L	-lei-	.	2ryy	2ryy	2ryy	8g\L	.	8b\L	.	8D\L	.	8G\L	.	8b/L	.	8g/L	.	8gg\L	.
8DD/J	.	.	8F#/J	.	8d\J	.	8A/J	.	8f#/J	.	.	.	.	.	.	.	8A/J	.	.	8f#/J	.	.	.	.	.	8d\	.	8a\	.	8DD/	.	8F#\	.	8a/	.	8f#/	.	8ff#\J	.
!LO:TX:t=P:problem:mixed beam	!	!	!	!	!	!	!	!	!	!	!	!	!	!	!	!	!	!	!	!	!	!	!	!	!	!	!	!	!	!	!	!	!	!	!	!	!	!	!
16GG/LL	.	.	8G/	.	8d\	.	8B/	.	8g/	.	8D/	-son	.	4d\	-rie	.	8B/	-son	.	8g/	-son	.	.	.	.	8G/J	.	8g\J	.	8GG/J	.	8G\J	.	8g/J	.	8g/J	.	8gg\	.
16G\	.	.	.	.	.	.	.	.	.	.	.	.	.	.	.	.	.	.	.	.	.	.	.	.	.	.	.	.	.	.	.	.	.	.	.	.	.	.	.
16B\	.	.	8r	.	8r	f	8r	.	8r	.	8r	.	.	.	.	.	8r	.	.	8r	.	.	.	.	.	8r	.	8r	.	8r	.	8r	.	8r	.	8r	.	8r	.
16G\JJ	.	.	.	.	.	.	.	.	.	.	.	.	.	.	.	.	.	.	.	.	.	.	.	.	.	.	.	.	.	.	.	.	.	.	.	.	.	.	.
!	!	!	!	!	!	!	!	!	!	!	!	!	!	!	!	!	!	!	!	!	!	!	!	!	!	!	!	!LO:LB:g=original	!	!	!	!	!	!	!	!LO:PB:g=original	!	!	!
=35	=35	=35	=35	=35	=35	=35	=35	=35	=35	=35	=35	=35	=35	=35	=35	=35	=35	=35	=35	=35	=35	=35	=35	=35	=35	=35	=35	=35	=35	=35	=35	=35	=35	=35	=35	=35	=35	=35	=35
*	*	*	*	*	*	*	*	*	*	*	*	*	*	*	*ij	*	*	*	*	*	*	*	*	*	*	*	*	*	*	*	*	*	*	*	*	*	*	*	*
!	!	!	!	!	!	!	!	!	!	!	!	!	!	!	!	!	!	!	!	!	!	!	!	!	!	!	!	!	!	!	!LO:DY:a:t=f&colon;	!	!LO:DY:a:t=p&colon;	!	!	!	!	!	!
16c\LL	3_	.	8.gL 8.G\	.	(16e\LL	.	8.cc\L	.	8.ee\L	.	8.G\	Ky-	.	8.c\	Ky-	.	8.g\	Ky-	.	8.ee\	Ky-	.	2ryy	2ryy	2ryy	16G/LL	.	16g\LL	f	16c\LL	f	16e\LL	p	8.cc\L	.	8.ee\L	.	4gg\	.
16G\	.	.	.	.	16A\)	.	.	.	.	.	.	.	.	.	.	.	.	.	.	.	.	.	.	.	.	32G/L	.	32g\L	.	16G\	.	16c\	.	.	.	.	.	.	.
.	.	.	.	.	.	.	.	.	.	.	.	.	.	.	.	.	.	.	.	.	.	.	.	.	.	32G/JJJ	.	32g\J	.	.	.	.	.	.	.	.	.	.	.
16c\	.	.	.	.	(16e\	.	.	.	.	.	.	.	.	.	.	.	.	.	.	.	.	.	.	.	.	16G/LL	.	16g\	.	16c\	.	16e\	.	.	.	.	.	.	.
16G\JJ	.	.	16gJk 16G\	.	16A\JJ)	.	16cc\Jk	.	16ee\Jk	.	16G\	-ri-	.	16c\	-ri-	.	16g\	-ri-	.	16ee\	-ri-	.	.	.	.	32G/L	.	16g\JJ	.	16G\JJ	.	16c\JJ	.	16cc\K	.	16ee\Jk	.	.	.
.	.	.	.	.	.	.	.	.	.	.	.	.	.	.	.	.	.	.	.	.	.	.	.	.	.	32G/JJJ	.	.	.	.	.	.	.	.	.	.	.	.	.
!	!	!	!	!	!	!LO:DY:a:t=p&colon;	!	!	!	!	!	!	!	!	!	!	!	!	!	!	!	!	!	!	!	!LO:N:vis=8	!	!	!	!	!LO:DY:a:t=p&colon;	!	!LO:DY:a:t=f.	!	!	!	!	!	!
16B\LL	3_	.	8g 8G\	.	(16d\LL	p	8b\	.	(32dd\LLL	.	8G\	-e	.	8B\	-e	.	8g\	-e	.	8dd\	-e	.	.	.	.	4r	.	8g\	.	16B\LL	p	16d\LL	f	8b\J	.	8dd\	.	8gg\	.
*	*	*	*	*	*	*	*	*	*	*	*	*	*	*	*Xij	*	*	*	*	*	*	*	*	*	*	*	*	*	*	*	*	*	*	*	*	*	*	*	*
.	.	.	.	.	.	.	.	.	32gg\	.	.	.	.	.	.	.	.	.	.	.	.	.	.	.	.	.	.	.	.	.	.	.	.	.	.	.	.	.	.
16G\	.	.	.	.	16B\)	.	.	.	32ff#\	.	.	.	.	.	.	.	.	.	.	.	.	.	.	.	.	.	.	.	.	16G\	.	16B\	.	.	.	.	.	.	.
.	.	.	.	.	.	.	.	.	32gg\JJJ)	.	.	.	.	.	.	.	.	.	.	.	.	.	.	.	.	.	.	.	.	.	.	.	.	.	.	.	.	.	.
16B\	.	.	8r	.	(16d\	.	8r	.	(32bb\LLL	.	8r	.	.	8r	.	.	8r	.	.	8r	.	.	.	.	.	.	.	8r	.	16B\	.	16d\	.	8r	.	8r	.	8r	.
.	.	.	.	.	.	.	.	.	32gg\	.	.	.	.	.	.	.	.	.	.	.	.	.	.	.	.	.	.	.	.	.	.	.	.	.	.	.	.	.	.
16G\JJ	.	.	.	.	16B\JJ)	.	.	.	32ff#\	.	.	.	.	.	.	.	.	.	.	.	.	.	.	.	.	.	.	.	.	16G\JJ	.	16B\JJ	.	.	.	.	.	.	.
.	.	.	.	.	.	.	.	.	32gg\JJJ)	.	.	.	.	.	.	.	.	.	.	.	.	.	.	.	.	.	.	.	.	.	.	.	.	.	.	.	.	.	.
!	!	!	!	!	!	!	!	!	!	!	!	!	!	!LO:LB:g=original	!	!	!	!	!	!	!	!	!	!	!	!	!	!	!	!	!	!	!	!	!	!	!	!	!
=36	=36	=36	=36	=36	=36	=36	=36	=36	=36	=36	=36	=36	=36	=36	=36	=36	=36	=36	=36	=36	=36	=36	=36	=36	=36	=36	=36	=36	=36	=36	=36	=36	=36	=36	=36	=36	=36	=36	=36
!	!	!	!	!	!	!LO:DY:a:t=f&colon;	!	!	!	!	!	!	!	!	!	!	!	!	!	!	!	!	!	!	!	!	!	!	!	!	!LO:DY:a:t=f&colon;	!	!LO:DY:a:t=p&colon;	!	!	!	!	!	!
16c\LL	3_	.	8.gL 8.G\	.	(16e\LL	f	8.cc\L	.	8.ee\L	.	8.G\	Ky-	.	8.c\	Ky-	.	8.g\	Ky-	.	8.ee\	Ky-	.	2ryy	2ryy	2ryy	16G/LL	.	16g\LL	f	16c\LL	f	16e\LL	p	8.cc\L	.	8.ee\L	.	4gg\	.
16G\	.	.	.	.	16A\)	.	.	.	.	.	.	.	.	.	.	.	.	.	.	.	.	.	.	.	.	32G/L	.	32g\L	.	16G\	.	16c\	.	.	.	.	.	.	.
.	.	.	.	.	.	.	.	.	.	.	.	.	.	.	.	.	.	.	.	.	.	.	.	.	.	32G/JJJ	.	32g\J	.	.	.	.	.	.	.	.	.	.	.
16c\	.	.	.	.	(16e\	.	.	.	.	.	.	.	.	.	.	.	.	.	.	.	.	.	.	.	.	16G/LL	.	16g\	.	16c\	.	16e\	.	.	.	.	.	.	.
16G\JJ	.	.	16gJk 16G\	.	16A\JJ)	.	16cc\Jk	.	16ee\Jk	.	16G\	-ri-	.	16c\	-ri-	.	16g\	-ri-	.	16ee\	-ri-	.	.	.	.	32G/L	.	16g\JJ	.	16G\JJ	.	16c\JJ	.	16cc\K	.	16ee\Jk	.	.	.
.	.	.	.	.	.	.	.	.	.	.	.	.	.	.	.	.	.	.	.	.	.	.	.	.	.	32G/JJJ	.	.	.	.	.	.	.	.	.	.	.	.	.
!LO:LB:g=original	!	!	!	!	!	!LO:DY:a:t=p	!	!	!	!	!	!	!	!	!	!	!	!	!	!	!	!	!	!	!	!LO:N:vis=8	!	!	!	!	!LO:DY:a:t=p&colon;	!	!LO:DY:a:t=f&colon;	!	!	!	!	!	!
16B\LL	3_	.	8g 8G\	.	(16d\LL	p	8b\	.	(32dd\LLL	.	8G\	-e	.	8B\	-e	.	8g\	-e	.	8dd\	-e	.	.	.	.	4r	.	8g\	.	16B\LL	p	16d\LL	f	8b\J	.	8dd\	.	8gg\	.
.	.	.	.	.	.	.	.	.	32gg\	.	.	.	.	.	.	.	.	.	.	.	.	.	.	.	.	.	.	.	.	.	.	.	.	.	.	.	.	.	.
16G\	.	.	.	.	16B\)	.	.	.	32ff#\	.	.	.	.	.	.	.	.	.	.	.	.	.	.	.	.	.	.	.	.	16G\	.	16B\	.	.	.	.	.	.	.
.	.	.	.	.	.	.	.	.	32gg\JJJ)	.	.	.	.	.	.	.	.	.	.	.	.	.	.	.	.	.	.	.	.	.	.	.	.	.	.	.	.	.	.
16B\	.	.	8r	.	(16d\	.	8r	.	(32bb\LLL	.	8r	.	.	8r	.	.	8r	.	.	8r	.	.	.	.	.	.	.	8r	.	16B\	.	16d\	.	8r	.	8r	.	8r	.
.	.	.	.	.	.	.	.	.	32gg\	.	.	.	.	.	.	.	.	.	.	.	.	.	.	.	.	.	.	.	.	.	.	.	.	.	.	.	.	.	.
16G\JJ	.	.	.	.	16B\JJ)	.	.	.	32ff#\	.	.	.	.	.	.	.	.	.	.	.	.	.	.	.	.	.	.	.	.	16G\JJ	.	16B\JJ	.	.	.	.	.	.	.
.	x	.	.	.	.	.	.	.	32gg\JJJ)	.	.	.	.	.	.	.	.	.	.	.	.	.	.	.	.	.	.	.	.	.	.	.	.	.	.	.	.	.	.
!	!	!	!	!	!	!	!	!	!	!	!	!	!	!	!	!	!	!	!	!LO:LB:g=original	!	!	!	!	!	!	!	!	!	!	!	!	!	!	!	!	!	!	!
=37	=37	=37	=37	=37	=37	=37	=37	=37	=37	=37	=37	=37	=37	=37	=37	=37	=37	=37	=37	=37	=37	=37	=37	=37	=37	=37	=37	=37	=37	=37	=37	=37	=37	=37	=37	=37	=37	=37	=37
!	!	!	!LO:TX:a:t=1	!	!LO:TX:a:t=1	!	!LO:TX:a:t=1.	!	!LO:TX:a:t=1	!	!LO:TX:a:t=1.	!	!	!LO:TX:a:t=1.	!	!	!LO:TX:a:t=1.	!	!	!LO:TX:a:t=1.	!	!	!	!	!	!	!	!	!	!	!	!	!	!	!	!	!	!LO:TX:a:t=1	!
2r	.	.	2r	.	2r	.	2r	.	2r	.	2r	.	.	2r	.	.	2r	.	.	2r	.	.	2ryy	2ryy	2ryy	2r	.	2r	.	2r	.	2r	.	2r	.	2r	.	2r	.
!	!	!	!	!	!	!	!	!	!	!	!	!	!	!	!	!	!	!	!	!	!	!	!	!	!	!	!	!	!	!LO:LB:g=original	!	!	!	!	!	!	!	!	!
=38	=38	=38	=38	=38	=38	=38	=38	=38	=38	=38	=38	=38	=38	=38	=38	=38	=38	=38	=38	=38	=38	=38	=38	=38	=38	=38	=38	=38	=38	=38	=38	=38	=38	=38	=38	=38	=38	=38	=38
!LO:TX:a:i:t=Tutti	!	!	!	!	!	!	!	!	!	!	!	!	!	!	!	!	!	!	!	!	!	!	!	!	!	!	!	!	!	!LO:TX:t=P:problem:mixed beam	!LO:DY:a:t=forte	!LO:TX:t=P:problem:mixed beam	!LO:DY:a:t=f&colon;	!	!	!	!	!	!
8D\L	.	.	8f#\L	.	8c\L	.	8a/L	.	8cc\L	.	8D/	Ky-	.	8A/	Ky-	.	8a\	Ky-	.	8cc\	Ky-	.	2ryy	2ryy	2ryy	8d/L	.	8a\L	.	8F#\L	f	8A\L	f	8a\L	.	8cc\L	.	8ccc\L	.
8F#\J	.	.	8d\J	.	16e\L	.	16cc/L	.	(16ee\L	.	8F#/	-ri-	.	8A/	-ri-	.	16cc\LL	-ri-	.	16ee\LL	-ri-	.	.	.	.	8d/	.	8a\	.	8D\	.	8F#\	.	16cc\L	.	16ee\L	.	(16eee\L	.
.	.	.	.	.	16c\JJ	.	16a/JJ	.	16cc\JJ)	.	.	.	.	.	.	.	16a\JJ	.	.	16cc\JJ	.	.	.	.	.	.	.	.	.	.	.	.	.	16a\JJ	.	16cc\JJ	.	16ccc\JJ)	.
!	!	!	!	!	!	!	!	!	!	!	!	!	!	!	!	!	!LO:LB:g=original	!	!	!	!	!	!	!	!	!	!	!	!	!	!	!	!	!	!	!	!	!	!
8G\L	.	.	16g\LL	.	8B\L	.	8g/L	.	8b\L	.	8G\	-e	.	8B/	-e	.	8g\	-e	.	16b\LL	-e	.	.	.	.	8g/J	.	8b\J	.	8G\	.	8G\	.	8g/L	.	8b\L	.	8bb\L	.
.	.	.	16e\	.	.	.	.	.	.	.	.	.	.	.	.	.	.	.	.	16dd\JJ	.	.	.	.	.	.	.	.	.	.	.	.	.	.	.	.	.	.	.
16E\L	.	.	16c\	.	(32d\LL	.	(32fn/LL	.	(32dd\LL	.	16E\LL	e-	.	8c/	e-	.	32fn\LLL	e-	.	(32dd\LLL	lei-	.	.	.	.	8r	.	8r	.	8C/J	.	8C/J	.	16e/L	.	(32dd\LL	.	(32ddd\LL	.
.	.	.	.	.	32c\	.	32e/	.	32cc\	.	.	.	.	.	.	.	32e\	.	.	32cc\	.	.	.	.	.	.	.	.	.	.	.	.	.	.	.	32cc\	.	32ccc\	.
16C\JJ	.	.	16A\JJ	.	32B\	.	32d/	.	32b\	.	16C\JJ	.	.	.	.	.	32d\	.	.	32b\	.	.	.	.	.	.	.	.	.	.	.	.	.	16a/JJ	.	32b\	.	32bb\	.
.	.	.	.	.	32A\JJJ)	.	32c/JJJ)	.	32a\JJJ)	.	.	.	.	.	.	.	32c\JJJ	.	.	32a\JJJ)	.	.	.	.	.	.	.	.	.	.	.	.	.	.	.	32a\JJJ)	.	32aa\JJJ)	.
=39	=39	=39	=39	=39	=39	=39	=39	=39	=39	=39	=39	=39	=39	=39	=39	=39	=39	=39	=39	=39	=39	=39	=39	=39	=39	=39	=39	=39	=39	=39	=39	=39	=39	=39	=39	=39	=39	=39	=39
!LO:TX:t=P:problem:mixed beam	!	!	!	!	!	!	!	!	!	!	!	!	!	!	!	!	!	!	!	!	!	!	!	!	!	!	!	!	!	!LO:TX:t=P:problem:mixed beam	!	!	!	!	!	!	!	!	!
8D\L	.	.	8d\L	.	16A/KL	.	16c/KL	.	16a/KL	.	4D/	-lei-	.	4d\	-lei-	.	16c/KL	-lei-	.	16a\KL	-son	.	2ryy	2ryy	2ryy	8D/L	.	8d/L	.	8D\L	.	8D/L	.	16a/KL	.	16cc\KL	.	16aa\KL	.
.	.	.	.	.	8G/	.	8B/	.	8g/	.	.	.	.	.	.	.	8B/	.	.	8g\	.	.	.	.	.	.	.	.	.	.	.	.	.	8g/	.	8b\	.	8gg\	.
8DD/	.	.	8d\J	.	.	.	.	.	.	.	.	.	.	.	.	.	.	.	.	.	.	.	.	.	.	8D/	.	8d/	.	8DD/	.	8DD/	.	.	.	.	.	.	.
!	!	!	!	!	!	!	!	!LO:DY:a:t=p.	!	!	!	!	!	!	!	!	!	!	!	!	!	!	!	!	!	!	!	!	!	!	!	!	!	!	!	!	!	!	!
.	.	.	.	.	16F#/Jk	.	16A/Jk	p	16f#/Jk	.	.	.	.	.	.	.	16A/Jk	.	.	16f#\Jk	.	.	.	.	.	.	.	.	.	.	.	.	.	16f#/Jk	.	16a\Jk	.	16ff#\Jk	.
8GG/J	.	.	8d\	.	(16G/LL	.	(16B/LL	.	8g/	.	8D/	-son.	.	8d\	-son.	.	8B/	-son	.	8g/	.	.	.	.	.	8G/J	.	8d/J	.	8GG/J	.	8GG/J	.	8g/	.	8g/	.	8gg\	.
.	.	.	.	.	16B/)	.	16d/)	.	.	.	.	.	.	.	.	.	.	.	.	.	.	.	.	.	.	.	.	.	.	.	.	.	.	.	.	.	.	.	.
8r	.	.	8r	.	(16G/	.	(16B/	.	8r	.	8r	.	.	8r	.	.	8r	.	.	8r	.	.	.	.	.	8r	.	8r	.	8r	.	8r	.	8r	.	8r	.	8r	.
.	.	.	.	.	16B/JJ)	.	16d/JJ)	.	.	.	.	.	.	.	.	.	.	.	.	.	.	.	.	.	.	.	.	.	.	.	.	.	.	.	.	.	.	.	.
!	!	!	!	!	!LO:LB:g=original	!	!	!	!LO:LB:g=original	!	!	!	!	!	!	!	!	!	!	!	!	!	!	!	!	!	!	!	!	!	!	!	!	!	!	!	!	!	!
=40	=40	=40	=40	=40	=40	=40	=40	=40	=40	=40	=40	=40	=40	=40	=40	=40	=40	=40	=40	=40	=40	=40	=40	=40	=40	=40	=40	=40	=40	=40	=40	=40	=40	=40	=40	=40	=40	=40	=40
!LO:TX:a:i:t=pedal	!	!	!	!	!	!LO:DY:t=p	!	!	!	!	!LO:TX:a:t=4.	!	!	!LO:TX:a:t=4.	!	!	!LO:TX:a:t=4.	!	!	!LO:TX:a:t=4.	!	!	!	!	!	!	!	!LO:TX:a:t=4	!	!LO:TX:a:t=4.	!	!LO:TX:a:t=4	!	!	!	!	!	!	!LO:DY:t=pia
4DD/	.	.	8d|\L	.	(16A/LL	p	(16c/LL	.	(16b\LL	.	0r	.	.	0r	.	.	0r	.	.	0r	.	.	2ryy	2ryy	2ryy	0r	.	0r	.	0r	.	0r	.	0r	.	0r	.	2ddT\	p
.	.	.	.	.	16c/)	.	16d/)	.	16a\)	.	.	.	.	.	.	.	.	.	.	.	.	.	.	.	.	.	.	.	.	.	.	.	.	.	.	.	.	.	.
.	.	.	8c|\	.	(16F#/	.	(16A/	.	(16cc\	.	.	.	.	.	.	.	.	.	.	.	.	.	.	.	.	.	.	.	.	.	.	.	.	.	.	.	.	.	.
.	.	.	.	.	16A/JJ)	.	16d/JJ)	.	16f#\JJ)	.	.	.	.	.	.	.	.	.	.	.	.	.	.	.	.	.	.	.	.	.	.	.	.	.	.	.	.	.	.
.	.	.	.	.	.	.	.	.	8qa/	.	.	.	.	.	.	.	.	.	.	.	.	.	.	.	.	.	.	.	.	.	.	.	.	.	.	.	.	.	.
8GG/	.	.	8B|\J	.	(16G/LL	.	(16B/LL	.	8g/	.	.	.	.	.	.	.	.	.	.	.	.	.	.	.	.	.	.	.	.	.	.	.	.	.	.	.	.	.	.
.	.	.	.	.	16B/)	.	16d/)	.	.	.	.	.	.	.	.	.	.	.	.	.	.	.	.	.	.	.	.	.	.	.	.	.	.	.	.	.	.	.	.
8r	.	.	8r	.	(16G/	.	(16B/	.	16r	.	.	.	.	.	.	.	.	.	.	.	.	.	.	.	.	.	.	.	.	.	.	.	.	.	.	.	.	.	.
.	.	.	.	.	16B/JJ)	.	16d/JJ)	.	16b\	.	.	.	.	.	.	.	.	.	.	.	.	.	.	.	.	.	.	.	.	.	.	.	.	.	.	.	.	.	.
=41	=41	=41	=41	=41	=41	=41	=41	=41	=41	=41	=41	=41	=41	=41	=41	=41	=41	=41	=41	=41	=41	=41	=41	=41	=41	=41	=41	=41	=41	=41	=41	=41	=41	=41	=41	=41	=41	=41	=41
!	!	!	!	!	!	!	!LO:TX:a:i:t=perdendosi	!	!	!	!	!	!	!	!	!	!	!	!	!	!	!	!	!	!	!	!	!	!	!	!	!	!	!	!	!	!	!	!
4DD/	.	.	8d|\L	.	16A/LL	.	16c/LL	.	(16b\LL	.	.	.	.	.	.	.	.	.	.	.	.	.	2ryy	2ryy	2ryy	.	.	.	.	.	.	.	.	.	.	.	.	4dd\	.
.	.	.	.	.	16c/	.	16d/	.	16a\)	.	.	.	.	.	.	.	.	.	.	.	.	.	.	.	.	.	.	.	.	.	.	.	.	.	.	.	.	.	.
.	.	.	8c|\	.	16F#/	.	16A/	.	16cc'\	.	.	.	.	.	.	.	.	.	.	.	.	.	.	.	.	.	.	.	.	.	.	.	.	.	.	.	.	.	.
!	!	!	!	!	!	!	!	!	!LO:TX:a:i:t=perdendosi	!	!	!	!	!	!	!	!	!	!	!	!	!	!	!	!	!	!	!	!	!	!	!	!	!	!	!	!	!	!
.	.	.	.	.	16A/JJ	.	16d/JJ	.	16f#'\JJ	.	.	.	.	.	.	.	.	.	.	.	.	.	.	.	.	.	.	.	.	.	.	.	.	.	.	.	.	.	.
.	.	.	.	.	.	.	.	.	8qa/	.	.	.	.	.	.	.	.	.	.	.	.	.	.	.	.	.	.	.	.	.	.	.	.	.	.	.	.	.	.
8GG/	.	.	8B|\J	.	8G/	.	16B/LL	.	(16g/LL	.	.	.	.	.	.	.	.	.	.	.	.	.	.	.	.	.	.	.	.	.	.	.	.	.	.	.	.	8dd\	.
.	.	.	.	.	.	.	16g/	.	16b/)	.	.	.	.	.	.	.	.	.	.	.	.	.	.	.	.	.	.	.	.	.	.	.	.	.	.	.	.	.	.
8r	.	.	8r	.	8r	.	16g/	.	(16b/	.	.	.	.	.	.	.	.	.	.	.	.	.	.	.	.	.	.	.	.	.	.	.	.	.	.	.	.	8r	.
.	.	.	.	.	.	.	16a/JJ	.	16cc/JJ)	.	.	.	.	.	.	.	.	.	.	.	.	.	.	.	.	.	.	.	.	.	.	.	.	.	.	.	.	.	.
=42	=42	=42	=42	=42	=42	=42	=42	=42	=42	=42	=42	=42	=42	=42	=42	=42	=42	=42	=42	=42	=42	=42	=42	=42	=42	=42	=42	=42	=42	=42	=42	=42	=42	=42	=42	=42	=42	=42	=42
4r	.	.	4r	.	4r	.	(16a/LL	.	(16cc\LL	.	.	.	.	.	.	.	.	.	.	.	.	.	2ryy	2ryy	2ryy	.	.	.	.	.	.	.	.	.	.	.	.	4r	.
.	.	.	.	.	.	.	16b/)	.	16dd\)	.	.	.	.	.	.	.	.	.	.	.	.	.	.	.	.	.	.	.	.	.	.	.	.	.	.	.	.	.	.
.	.	.	.	.	.	.	(16b/	.	(16dd\	.	.	.	.	.	.	.	.	.	.	.	.	.	.	.	.	.	.	.	.	.	.	.	.	.	.	.	.	.	.
.	.	.	.	.	.	.	16cc/JJ)	.	16ee\JJ)	.	.	.	.	.	.	.	.	.	.	.	.	.	.	.	.	.	.	.	.	.	.	.	.	.	.	.	.	.	.
8r	.	.	8r	.	8r	.	16cc\LL	.	(16ee\LL	.	.	.	.	.	.	.	.	.	.	.	.	.	.	.	.	.	.	.	.	.	.	.	.	.	.	.	.	8r	.
.	.	.	.	.	.	.	16b\	.	16dd\)	.	.	.	.	.	.	.	.	.	.	.	.	.	.	.	.	.	.	.	.	.	.	.	.	.	.	.	.	.	.
!	!	!LO:DY:a:t=Piano	!	!LO:DY:t=pianiſsimo	!	!	!	!	!	!	!	!	!	!	!	!	!	!	!	!	!	!	!	!	!	!	!	!	!	!	!	!	!	!	!	!	!	!	!LO:DY:t=pp&colon;
8D\	.	p	8d\	pp	8c/	pp	16a\	.	(16dd\	.	.	.	.	.	.	.	.	.	.	.	.	.	.	.	.	.	.	.	.	.	.	.	.	.	.	.	.	8aa\	pp
.	.	.	.	.	.	.	16g\JJ	.	16ff#\JJ)	.	.	.	.	.	.	.	.	.	.	.	.	.	.	.	.	.	.	.	.	.	.	.	.	.	.	.	.	.	.
=43	=43	=43	=43	=43	=43	=43	=43	=43	=43	=43	=43	=43	=43	=43	=43	=43	=43	=43	=43	=43	=43	=43	=43	=43	=43	=43	=43	=43	=43	=43	=43	=43	=43	=43	=43	=43	=43	=43	=43
!LO:TX:t=P:problem:mixed beam	!	!	!	!	!	!	!	!	!	!LO:DY:t=pp&colon;	!	!	!	!	!	!	!	!	!	!	!	!	!	!	!	!	!	!	!	!	!	!	!	!	!	!	!	!	!
8G\L	.	.	4d\	.	4c\	.	4a/	pp	(4ff#\	pp	.	.	.	.	.	.	.	.	.	.	.	.	2ryy	2ryy	2ryy	.	.	.	.	.	.	.	.	.	.	.	.	(4aa\	.
8D\	.	.	.	.	.	.	.	.	.	.	.	.	.	.	.	.	.	.	.	.	.	.	.	.	.	.	.	.	.	.	.	.	.	.	.	.	.	.	.
8GG/J	.	.	8g\	.	8d\	.	8b/	.	8gg\)	.	.	.	.	.	.	.	.	.	.	.	.	.	.	.	.	.	.	.	.	.	.	.	.	.	.	.	.	8gg\)	.
!	!	!	!	!	!	!	!	!	!	!	!	!	!	!	!	!	!	!	!	!	!	!	!	!	!	!	!	!	!	!	!	!	!	!	!	!	!	!LO:TX:b:i:t=V&colon; S&colon;	!
8r	.	.	8r	.	8r	.	8r	.	8r	.	.	.	.	.	.	.	.	.	.	.	.	.	.	.	.	.	.	.	.	.	.	.	.	.	.	.	.	8r	.
==	==	==	==	==	==	==	==	==	==	==	==	==	==	==	==	==	==	==	==	==	==	==	==	==	==	==	==	==	==	==	==	==	==	==	==	==	==	==	==
*-	*-	*-	*-	*-	*-	*-	*-	*-	*-	*-	*-	*-	*-	*-	*-	*-	*-	*-	*-	*-	*-	*-	*-	*-	*-	*-	*-	*-	*-	*-	*-	*-	*-	*-	*-	*-	*-	*-	*-
!!!system-decoration: [(g1)][(g2)]<s10>[(g3)][(g4)]<s19>
!!!RDF**kern: | = vertical stroke
!!!RDF**dynam: p = "pia:"
!!!RDF**dynam: f = "for"
!!!ENC: Marcin Jachim
!!!END: 2020-10-27
!!!AIN: 1 alto 1 bass 2 clrno 2 cor 2 fagot 1 flt 2 oboe 1 organ 1 soprn 1 tenor 1 timpa 2 viola 2 violn
!!!ENC: Andrzej Kubiczek
!!!END: 2022-03-30
